!!!!SEGMENT: pl-kk--kk-i-626--001-002_lisinski-karol--vesperae-confitebor.krn
!!!cenid: 18xx:4607
!!!COM: Lisiński, Karol
!!!COM-rismID: pe50053612
!!!CDT:
!!!CNT: Polish
!!!OPR: Vesperae
!!!OTL: Confitebor
!!!OMV: 002
!!!PDT:
!!!AGN: Sacred; Vespers
!!!YEC: Copyright 2022 Narodowy Instytut Fryderyka Chopina (https://polishscores.org)
!!!YEM: License CC-BY-4.0 (https://creativecommons.org/licenses/by/4.0)
!!!SMS-siglum: PL-Kk
!!!SMS-shelfmark: Kk.I.626
!!!SMS-variant: Violino Primo: Kk.I.626: 30; Violino Secundo: Kk.I.626: 35
!!!SMS-altvar: Violino Primo: Kk.I.626: 24-25; Kk.I.626: Violino Secundo: 40-41
!!!SMS-shelfwork: 001-002 M
!!!NIFC-rismSourceID: 1001210167
!!!NIFC-rismChildID: 1001210167
!!!NIFC-islandoraID: pl-kk:20059
!!!URL-pdf-islandora: https://repozytorium.nifc.pl/islandora/object/pl-kk:20059/datastream/PDF/view
!!!URL-scan: https://polish.musicsources.pl/pl/lokalizacje/galeria/rekopisy/7260/2 @EN{Scan on Polish Music Sources Website} @PL{Skany w portalu Dziedzictwo Muzyki Polskiej w otwartym dostępie}
!!!IIIF:
!!!ONB-nifc: UWAGA: Części Nieszporów: 1. Dixit Dominus, 2. Confitebor, 3. Beatus vir, 4. Laudate pueri, 5. Laudate Dominum, 6. Magnificat. Gloria wchodzi w ramy ww. części. do Uwaga: Partia Organo na skanach 57-59 i 2. Uwaga: Violino Primo i Secundo wg odpisów spisanych ręką tą samą co reszta partii (s. 29-33 i 39-44). Proszę uzupełnić pola SMS:variant i SMS:altvar.
!!!AIN: 1 alto 1 bass 1 canto 2 clrno 1 organ 1 tenor 1 viole 2 violn
!!!key:
**kern	**fba	**kern	**kern	**dynam	**kern	**dynam	**kern	**text	**kern	**text	**kern	**text	**kern	**text	**kern	**kern
*part10	*	*part9	*part8	*part8	*part7	*part7	*part6	*part6	*part5	*part5	*part4	*part4	*part3	*part3	*part2	*part1
*staff10	*	*staff9	*staff8	*	*staff7	*	*staff6	*staff6	*staff5	*staff5	*staff4	*staff4	*staff3	*staff3	*staff2	*staff1
*I"Organo.	*	*I"Violone	*I"Violino Secundo	*	*I"Violino Primo	*	*I"Baſso.	*	*I"Tenore	*	*I"Alto.	*	*I"Canto	*	*I"Clarino Secundo ex D.	*I"Clarino Primo ex D.
*I'org	*	*I'vlne	*I'vl 2	*	*I'vl 1	*	*I'B	*	*I'T	*	*I'A	*	*I'S	*	*I'clno 2 in D	*I'clno 1 in D
*clefF4	*	*clefF4	*clefG2	*	*clefG2	*	*clefF4	*	*clefC4	*	*clefC3	*	*clefC1	*	*clefG2	*clefG2
*	*	*	*	*	*	*	*	*	*	*	*	*	*	*	*ITrd-1c-2	*ITrd-1c-2
*Iorgan	*	*Iviole	*Ivioln	*	*Ivioln	*	*Ibass	*	*Itenor	*	*Ialto	*	*Icanto	*	*Iclrno	*Iclrno
*ICklav	*	*ICstr	*ICstr	*	*ICstr	*	*ICvox	*	*ICvox	*	*ICvox	*	*ICvox	*	*ICvox	*ICvox
*k[f#c#]	*	*k[f#c#]	*k[f#c#]	*	*k[f#c#]	*	*k[f#c#]	*	*k[f#c#]	*	*k[f#c#]	*	*k[f#c#]	*	*k[f#c#]	*k[f#c#]
*D:	*	*D:	*D:	*	*D:	*	*D:	*	*D:	*	*D:	*	*D:	*	*D:	*D:
*M3/4	*	*M3/4	*M3/4	*	*M3/4	*	*M3/4	*	*M3/4	*	*M3/4	*	*M3/4	*	*M3/4	*M3/4
=1	=1	=1	=1	=1	=1	=1	=1	=1	=1	=1	=1	=1	=1	=1	=1	=1
!LO:TX:a:t=Solo Vivace	!	!LO:TX:b:t=Confitebor	!LO:TX:b:t=Confitebor	!	!	!	!	!	!LO:TX:b:t=Confitebor.	!	!	!	!LO:TX:b:t=Confitebor.	!	!	!LO:TX:b:t=Confitebor
!LO:TX:b:t=Confitebor	!	!LO:TX:a:i:t=Solo vivace	!	!	!	!	!LO:TX:a:t=16	!	!LO:TX:a:t=60	!	!LO:TX:b:t=Confitebor.	!	!LO:TX:a:B:t=Vivace	!	!LO:TX:b:t=Confitebor.	!
!	!	!	!	!	!	!	!LO:N:vis=00	!	!LO:N:vis=00	!	!LO:N:vis=00	!	!LO:N:vis=00	!	!	!
4D\	.	4D\	4f#/	.	8d/	.	0.r	.	0.r	.	0.r	.	0.r	.	8ff#\L	8aa\L
.	.	.	.	.	4f#/	.	.	.	.	.	.	.	.	.	8ff#\	8aa\
4d\	.	4d\	4f#/	.	.	.	.	.	.	.	.	.	.	.	8ff#\	8aa\
.	.	.	.	.	4a/	.	.	.	.	.	.	.	.	.	8ff#\	8aa\J
4c#\	6	4c#\	4e/	.	.	.	.	.	.	.	.	.	.	.	8dd\	8ff#\L
.	.	.	.	.	16b/LL	.	.	.	.	.	.	.	.	.	8dd\J	8ff#\J
.	.	.	.	.	(16cc#/JJ	.	.	.	.	.	.	.	.	.	.	.
=2	=2	=2	=2	=2	=2	=2	=2	=2	=2	=2	=2	=2	=2	=2	=2	=2
4B\	.	4B\	8f#/	.	8dd\)	.	.	.	.	.	.	.	.	.	4dd\	4ff#\
.	.	.	4dd\	.	4ff#\	.	.	.	.	.	.	.	.	.	.	.
4r	.	4r	.	.	.	.	.	.	.	.	.	.	.	.	4r	4r
.	.	.	4ff#\	.	4aa\	.	.	.	.	.	.	.	.	.	.	.
8F#\L	6	8F#\L	.	.	.	.	.	.	.	.	.	.	.	.	4r	4r
8E\J	6	8E\J	8ff#\	.	16bb\LL	.	.	.	.	.	.	.	.	.	.	.
.	.	.	.	.	16ccc#\JJ	.	.	.	.	.	.	.	.	.	.	.
=3	=3	=3	=3	=3	=3	=3	=3	=3	=3	=3	=3	=3	=3	=3	=3	=3
4D\	.	4D\	8ff#\	.	8ddd\	.	.	.	.	.	.	.	.	.	8ff#\	8ddd\
.	.	.	4gg\	.	4bb\	.	.	.	.	.	.	.	.	.	4gg\	4bb\
4r	.	4r	.	.	.	.	.	.	.	.	.	.	.	.	.	.
.	.	.	4ff#\	.	4aa\	.	.	.	.	.	.	.	.	.	4ff#\	4aa\
8r	.	8r	.	.	.	.	.	.	.	.	.	.	.	.	.	.
8A\	.	8A\	8ee\	.	8gg\	.	.	.	.	.	.	.	.	.	8ee\	8gg\
=4	=4	=4	=4	=4	=4	=4	=4	=4	=4	=4	=4	=4	=4	=4	=4	=4
4D\	.	4D\	4dd\	.	16ff#\LL	.	.	.	.	.	.	.	.	.	4dd\	4ff#\
.	.	.	.	.	16dd\	.	.	.	.	.	.	.	.	.	.	.
.	.	.	.	.	16ee\	.	.	.	.	.	.	.	.	.	.	.
.	.	.	.	.	16ff#\JJ	.	.	.	.	.	.	.	.	.	.	.
4.G\	6	4.G\	4.b\	.	8ee\L	.	.	.	.	.	.	.	.	.	4r	4r
.	.	.	.	.	8dd\	.	.	.	.	.	.	.	.	.	.	.
.	.	.	.	.	8cc#\	.	.	.	.	.	.	.	.	.	4r	4r
8G#X\	5	8G#X\	8b\	.	8b\J	.	.	.	.	.	.	.	.	.	.	.
!	!	!	!	!	!LO:LB:g=original	!	!	!	!	!	!	!	!	!	!	!
=5	=5	=5	=5	=5	=5	=5	=5	=5	=5	=5	=5	=5	=5	=5	=5	=5
!	!	!	!	!	!	!	!LO:N:vis=00	!	!LO:N:vis=00	!	!LO:N:vis=00	!	!LO:N:vis=00	!	!	!LO:TX:a:t=2
!	!	!	!	!	!	!	!	!	!	!	!	!	!	!	!LO:N:vis=0	!LO:N:vis=0
8A\L	.	8A\L	8e/L	.	32cc#\LLL	.	0.r	.	0.r	.	0.r	.	0.r	.	1.r	1.r
.	.	.	.	.	32b\JJ	.	.	.	.	.	.	.	.	.	.	.
.	.	.	.	.	8.a\J	.	.	.	.	.	.	.	.	.	.	.
8A\	.	8A\	8c#/	.	.	.	.	.	.	.	.	.	.	.	.	.
8A\	.	8A\	8c#/	.	2a/	.	.	.	.	.	.	.	.	.	.	.
8A\	.	8A\	8c#/	.	.	.	.	.	.	.	.	.	.	.	.	.
8A\	.	8A\	8c#/	.	.	.	.	.	.	.	.	.	.	.	.	.
8A\J	.	8A\J	8c#/J	.	.	.	.	.	.	.	.	.	.	.	.	.
=6	=6	=6	=6	=6	=6	=6	=6	=6	=6	=6	=6	=6	=6	=6	=6	=6
8r	.	8r	32g#X/LLL	.	32b\LLL	.	.	.	.	.	.	.	.	.	.	.
.	.	.	32a/JJ	.	32cc#\JJ	.	.	.	.	.	.	.	.	.	.	.
.	.	.	8.b/J	.	8.dd\J	.	.	.	.	.	.	.	.	.	.	.
8G#X\L	.	8G#X\L	.	.	.	.	.	.	.	.	.	.	.	.	.	.
*	*	*	*2\right	*	*2\right	*	*	*	*	*	*	*	*	*	*	*
8G#\	.	8G#\	2bM\	.	2ddM\	.	.	.	.	.	.	.	.	.	.	.
8G#\	5	8G#\	.	.	.	.	.	.	.	.	.	.	.	.	.	.
8G#\	-	8G#\	.	.	.	.	.	.	.	.	.	.	.	.	.	.
8G#\J	.	8G#\J	.	.	.	.	.	.	.	.	.	.	.	.	.	.
!	!	!LO:LB:g=original	!	!	!	!	!	!	!	!	!	!	!	!	!	!
=7	=7	=7	=7	=7	=7	=7	=7	=7	=7	=7	=7	=7	=7	=7	=7	=7
!	!	!	!	!	!LO:TUP:a:klamra łukowa	!	!	!	!	!	!	!	!	!	!	!
4A\	.	4A\	4e/	.	12cc#\L	.	.	.	.	.	.	.	.	.	4a/	4a/
.	.	.	.	.	12b\	.	.	.	.	.	.	.	.	.	.	.
.	.	.	.	.	12a\J	.	.	.	.	.	.	.	.	.	.	.
!	!	!	!	!	!LO:TUP:a:klamra łukowa	!	!	!	!	!	!	!	!	!	!	!
4c#\	#	4c#\	4e/	.	12cc#\L	.	.	.	.	.	.	.	.	.	8a/L	8a/L
.	.	.	.	.	12b\	.	.	.	.	.	.	.	.	.	.	.
.	.	.	.	.	.	.	.	.	.	.	.	.	.	.	8a/J	8a/J
.	.	.	.	.	12a\J	.	.	.	.	.	.	.	.	.	.	.
!	!	!	!	!	!LO:TUP:a:klamra łukowa	!	!	!	!	!	!	!	!	!	!	!
4e\	.	4e\	4B/	.	12b\L	.	.	.	.	.	.	.	.	.	8ee\L	8ee\L
.	.	.	.	.	12a\	.	.	.	.	.	.	.	.	.	.	.
.	.	.	.	.	.	.	.	.	.	.	.	.	.	.	8ee\J	8ee\J
.	.	.	.	.	12g#X\J	.	.	.	.	.	.	.	.	.	.	.
!LO:LB:g=original	!	!	!LO:LB:g=original	!	!	!	!	!	!	!	!	!	!	!	!	!
=8	=8	=8	=8	=8	=8	=8	=8	=8	=8	=8	=8	=8	=8	=8	=8	=8
4.A\	.	4.A\	2.c#/	.	2.a/	.	.	.	.	.	.	.	.	.	2a/	2a/
8Gn\L	.	8Gn\L	.	.	.	.	.	.	.	.	.	.	.	.	.	.
8F#\	.	8F#\	.	.	.	.	.	.	.	.	.	.	.	.	4r	4r
8E\J	.	8E\J	.	.	.	.	.	.	.	.	.	.	.	.	.	.
=9	=9	=9	=9	=9	=9	=9	=9	=9	=9	=9	=9	=9	=9	=9	=9	=9
!	!	!	!	!	!	!	!LO:N:vis=00	!	!LO:N:vis=00	!	!LO:N:vis=00	!	!LO:N:vis=00	!	!	!
4D\	-7	4D\	8f#/	.	8d/	.	0.r	.	0.r	.	0.r	.	0.r	.	8ff#\	4aa\
.	.	.	4d/	.	4f#/	.	.	.	.	.	.	.	.	.	8dd\	.
4D\	.	4D\	.	.	.	.	.	.	.	.	.	.	.	.	8dd\	4ff#\
.	.	.	4f#/	.	8a/	.	.	.	.	.	.	.	.	.	4a/	.
4D\	.	4D\	.	.	32a\LLL	.	.	.	.	.	.	.	.	.	.	8dd\L
.	.	.	.	.	32b\JJ	.	.	.	.	.	.	.	.	.	.	.
.	.	.	.	.	8.ccn\J	.	.	.	.	.	.	.	.	.	.	.
.	.	.	8a/	.	.	.	.	.	.	.	.	.	.	.	8ff#\	8aa\J
!	!	!	!	!	!LO:LB:g=original	!	!	!	!	!	!	!	!	!	!LO:LB:g=original	!LO:LB:g=original
=10	=10	=10	=10	=10	=10	=10	=10	=10	=10	=10	=10	=10	=10	=10	=10	=10
!LO:TX:a:t=|	!	!	!	!	!LO:TX:b:t=|	!	!	!	!	!	!	!	!	!	!	!
4G\	.	4G\	4G/	.	4G/	.	.	.	.	.	.	.	.	.	4gg\	4bb\
!LO:TX:a:t=|	!	!	!	!	!LO:TX:b:t=|	!	!	!	!	!	!	!	!	!	!	!
4B\	.	4B\	4B/	.	4B/	.	.	.	.	.	.	.	.	.	4gg\	4bb\
!LO:TX:a:t=|	!	!	!	!	!LO:TX:b:t=|	!	!	!	!	!	!	!	!	!	!	!
4d\	.	4d\	4d/	.	4d/	.	.	.	.	.	.	.	.	.	4gg\	4bb\
=11	=11	=11	=11	=11	=11	=11	=11	=11	=11	=11	=11	=11	=11	=11	=11	=11
8E\L	.	8E\L	8g#X/	.	8e/	.	.	.	.	.	.	.	.	.	4ee\	4ee\
8E\	#	8E\	4e/	.	4g#X/	.	.	.	.	.	.	.	.	.	.	.
8E\	7	8E\	.	.	.	.	.	.	.	.	.	.	.	.	4r	4r
8E\	.	8E\	4g#/	.	8b/	.	.	.	.	.	.	.	.	.	.	.
8E\	.	8E\	.	.	32b\LLL	.	.	.	.	.	.	.	.	.	4r	4r
.	.	.	.	.	32cc#\JJ	.	.	.	.	.	.	.	.	.	.	.
.	.	.	.	.	8.dd\J	.	.	.	.	.	.	.	.	.	.	.
8E\J	.	8E\J	8b/	.	.	.	.	.	.	.	.	.	.	.	.	.
=12	=12	=12	=12	=12	=12	=12	=12	=12	=12	=12	=12	=12	=12	=12	=12	=12
!LO:TX:b:t=|	!	!	!	!	!	!	!	!	!	!	!	!	!	!	!	!
4AA/	.	4AA/	4A/	.	4A/	.	.	.	.	.	.	.	.	.	2.r	2.r
!LO:TX:b:t=|	!	!	!	!	!	!	!	!	!	!	!	!	!	!	!	!
4C#/	.	4C#/	4c#/	.	4c#/	.	.	.	.	.	.	.	.	.	.	.
!LO:TX:b:t=|	!	!	!	!	!	!	!	!	!	!	!	!	!	!	!	!
4E/	.	4E/	4e/	.	4e/	.	.	.	.	.	.	.	.	.	.	.
=13	=13	=13	=13	=13	=13	=13	=13	=13	=13	=13	=13	=13	=13	=13	=13	=13
!	!	!	!	!	!	!	!LO:N:vis=00	!	!LO:N:vis=00	!	!LO:N:vis=00	!	!LO:N:vis=00	!	!	!
4A\	.	4A\	8A/	.	8A/	.	0.r	.	0.r	.	0.r	.	0.r	.	8r	8r
.	.	.	4ff#\	.	4aa\	.	.	.	.	.	.	.	.	.	4ff#\	4aa\
4r	.	4r	.	.	.	.	.	.	.	.	.	.	.	.	.	.
.	.	.	4gg\	.	4bb\	.	.	.	.	.	.	.	.	.	4gg\	4bb\
4r	.	4r	.	.	.	.	.	.	.	.	.	.	.	.	.	.
.	.	.	8ff#\	.	8aa\	.	.	.	.	.	.	.	.	.	8ff#\	8aa\
!	!	!LO:LB:g=original	!	!	!	!	!	!	!	!	!	!	!	!	!	!
=14	=14	=14	=14	=14	=14	=14	=14	=14	=14	=14	=14	=14	=14	=14	=14	=14
8A\L	.	8A\L	8A/	.	8A/	.	.	.	.	.	.	.	.	.	8r	8r
!	!	!	!	!	!	!	!	!	!	!	!	!	!	!	!LO:N:vis=8	!
8A\	.	8A\	4ee\	.	4gg\	.	.	.	.	.	.	.	.	.	4ee\	4gg\
8A\	.	8A\	.	.	.	.	.	.	.	.	.	.	.	.	.	.
8A\	.	8A\	4ff#\	.	4aa\	.	.	.	.	.	.	.	.	.	4ff#\	4aa\
8A\	.	8A\	.	.	.	.	.	.	.	.	.	.	.	.	.	.
8A\J	.	8A\J	8ee\	.	8gg\	.	.	.	.	.	.	.	.	.	8ee\	8gg\
!LO:LB:g=original	!	!	!	!	!	!	!	!	!	!	!	!	!	!	!	!
=15	=15	=15	=15	=15	=15	=15	=15	=15	=15	=15	=15	=15	=15	=15	=15	=15
!	!	!	!	!	!LO:TUP:a	!	!	!	!	!	!	!	!	!	!	!
4D\	.	4D\	4dd\	.	12ff#\L	.	.	.	.	.	.	.	.	.	4dd\	8ff#\L
.	.	.	.	.	12ee\	.	.	.	.	.	.	.	.	.	.	.
.	.	.	.	.	.	.	.	.	.	.	.	.	.	.	.	8ee\J
.	.	.	.	.	12dd\J	.	.	.	.	.	.	.	.	.	.	.
!	!	!	!	!	!LO:LB:g=original	!	!	!	!	!	!	!	!	!	!	!
!	!	!	!	!	!LO:TUP:a	!	!	!	!	!	!	!	!	!	!	!
4F#\	.	4F#\	4dd\	.	12ff#\L	.	.	.	.	.	.	.	.	.	4dd\	4ff#\
.	.	.	.	.	12ee\	.	.	.	.	.	.	.	.	.	.	.
.	.	.	.	.	12dd\J	.	.	.	.	.	.	.	.	.	.	.
!	!	!	!	!	!LO:TUP:a:klamra łukowa	!	!	!	!	!	!	!	!	!	!	!
4A\	.	4A\	4e/	.	12ee\L	.	.	.	.	.	.	.	.	.	4a/	8ee\L
.	.	.	.	.	12dd\	.	.	.	.	.	.	.	.	.	.	.
.	.	.	.	.	.	.	.	.	.	.	.	.	.	.	.	8dd\J
.	.	.	.	.	12cc#\J	.	.	.	.	.	.	.	.	.	.	.
!	!	!	!LO:LB:g=original	!	!	!	!	!	!	!	!	!	!	!	!	!
=16	=16	=16	=16	=16	=16	=16	=16	=16	=16	=16	=16	=16	=16	=16	=16	=16
*2\right	*	*2\right	*	*	*	*	*	*	*	*	*	*	*	*	*	*2\right
2.D\	.	2.D\	2.f#/	.	2.dd\	.	.	.	.	.	.	.	.	.	2f#/	2dd\
.	.	.	.	.	.	.	.	.	.	.	.	.	.	.	4r	4r
=17	=17	=17	=17	=17	=17	=17	=17	=17	=17	=17	=17	=17	=17	=17	=17	=17
!	!	!	!	!	!	!	!	!	!LO:N:vis=00	!	!LO:N:vis=00	!	!LO:N:vis=00	!	!LO:N:vis=00	!
2.r	.	2.r	2.r	.	2.r	.	(4D\	Con-	0.r	.	0.r	.	0.r	.	0.r	2.r
.	.	.	.	.	.	.	4F#\)	.	.	.	.	.	.	.	.	.
.	.	.	.	.	.	.	4A\	-fi-	.	.	.	.	.	.	.	.
=18	=18	=18	=18	=18	=18	=18	=18	=18	=18	=18	=18	=18	=18	=18	=18	=18
!	!	!	!	!LO:DY:b:t=pia&colon;	!	!	!	!	!	!	!	!	!	!	!	!LO:N:vis=00
4D\	.	4D\	8dd\	p	8dd\	.	2d\	-te-	.	.	.	.	.	.	.	0.r
.	.	.	4ff#\	.	4ff#\	.	.	.	.	.	.	.	.	.	.	.
4F#\	.	4F#\	.	.	.	.	.	.	.	.	.	.	.	.	.	.
.	.	.	4aa\	.	4aa\	.	.	.	.	.	.	.	.	.	.	.
4A\	.	4A\	.	.	.	.	4c#\	bor	.	.	.	.	.	.	.	.
.	.	.	8ddd\	.	8ccc#\	.	.	.	.	.	.	.	.	.	.	.
=19	=19	=19	=19	=19	=19	=19	=19	=19	=19	=19	=19	=19	=19	=19	=19	=19
4D\	.	4D\	8ddd\L	.	8ddd\L	.	8d\L	ti-	.	.	.	.	.	.	.	.
.	.	.	16ccc#\L	.	16ccc#\L	.	16c#\L	.	.	.	.	.	.	.	.	.
.	.	.	16bb\JJ	.	16bb\JJ	.	16B\JJ	.	.	.	.	.	.	.	.	.
4r	.	4r	4aa\	.	4aa\	.	4A\	.	.	.	.	.	.	.	.	.
4C#/	-5	4C#/	4gg\	.	4gg\	.	4G\	-bi	.	.	.	.	.	.	.	.
=20	=20	=20	=20	=20	=20	=20	=20	=20	=20	=20	=20	=20	=20	=20	=20	=20
4D\	.	4D\	4ff#\	.	4ff#\	.	8F#\	Do-	.	.	.	.	.	.	.	.
.	.	.	.	.	.	.	8E\	-mi-	.	.	.	.	.	.	.	.
4r	.	4r	4r	.	4r	.	4D/	-ne	.	.	.	.	.	.	.	.
4D\	.	4D\	4r	.	4r	.	4D/	in	.	.	.	.	.	.	.	.
=21	=21	=21	=21	=21	=21	=21	=21	=21	=21	=21	=21	=21	=21	=21	=21	=21
!	!	!	!	!	!	!	!	!	!LO:N:vis=00	!	!LO:N:vis=00	!	!	!	!LO:N:vis=00	!
4D\	6 4	4D\	8g/	.	2.r	.	8B\	to-	0.r	.	0.r	.	0.r	.	0.r	.
.	.	.	4f#/	.	.	.	4A\	.	.	.	.	.	.	.	.	.
4D\	3	4D\	.	.	.	.	.	.	.	.	.	.	.	.	.	.
.	.	.	4e/	.	.	.	4G\	-to	.	.	.	.	.	.	.	.
4D\	.	4D\	.	.	.	.	.	.	.	.	.	.	.	.	.	.
.	.	.	8d/	.	.	.	8F#\	.	.	.	.	.	.	.	.	.
!	!	!LO:LB:g=original	!	!	!	!	!LO:PB:g=original	!	!	!	!	!	!	!	!	!
=22	=22	=22	=22	=22	=22	=22	=22	=22	=22	=22	=22	=22	=22	=22	=22	=22
!	!	!	!	!	!	!LO:DY:a	!	!	!	!	!	!	!	!	!	!LO:N:vis=00
4D\	-5	4D\	2.r	.	8dd\L	p	8F#\L	cor-	.	.	.	.	.	.	.	0.r
.	.	.	.	.	16cc#\L	.	16E\L	.	.	.	.	.	.	.	.	.
.	.	.	.	.	16dd\JJ	.	16F#\JJ	.	.	.	.	.	.	.	.	.
!	!	!	!	!	!LO:LB:g=original	!	!	!	!	!	!	!	!	!	!	!
4C#\	.	4C#\	.	.	4ee\	.	4G\	.	.	.	.	.	.	.	.	.
4D\	.	4D\	.	.	4dd\	.	4F#\	-de	.	.	.	.	.	.	.	.
=23	=23	=23	=23	=23	=23	=23	=23	=23	=23	=23	=23	=23	=23	=23	=23	=23
4A\	43	4A\	8r	.	8r	.	8F#\	me-	.	.	.	.	.	.	.	.
.	.	.	4A/	.	4A/	.	8E\	-o	.	.	.	.	.	.	.	.
4r	.	4r	.	.	.	.	4r	.	.	.	.	.	.	.	.	.
!	!	!	!	!	!LO:N:vis=8	!	!	!	!	!	!	!	!	!	!	!
.	.	.	4c#/	.	4c#/L	.	.	.	.	.	.	.	.	.	.	.
4r	.	4r	.	.	.	.	4r	.	.	.	.	.	.	.	.	.
.	.	.	8e/	.	8e/J	.	.	.	.	.	.	.	.	.	.	.
!LO:LB:g=original	!	!	!LO:LB:g=original	!	!	!	!	!	!	!	!	!	!	!	!	!
=24	=24	=24	=24	=24	=24	=24	=24	=24	=24	=24	=24	=24	=24	=24	=24	=24
4AA/	.	4AA/	4a/	.	4a/	.	4r	.	.	.	.	.	.	.	.	.
4C#/	.	4C#/	4r	.	4r	.	4A\	in	.	.	.	.	.	.	.	.
4AA/	.	4AA/	4r	.	8r	.	4A\	con-	.	.	.	.	.	.	.	.
.	.	.	.	.	8cc#\	.	.	.	.	.	.	.	.	.	.	.
=25	=25	=25	=25	=25	=25	=25	=25	=25	=25	=25	=25	=25	=25	=25	=25	=25
!	!	!	!	!	!	!	!	!	!LO:N:vis=00	!	!LO:N:vis=00	!	!LO:N:vis=00	!	!LO:N:vis=00	!
4E\	4	4E\	2.r	.	4b\	.	8A\	-si-	0.r	.	0.r	.	0.r	.	0.r	.
.	.	.	.	.	.	.	16G#X\LL	-li-	.	.	.	.	.	.	.	.
.	.	.	.	.	.	.	16A\JJ	.	.	.	.	.	.	.	.	.
4E\	#	4E\	.	.	4r	.	4B\	-o	.	.	.	.	.	.	.	.
4G#X\	-5	4G#X\	.	.	4r	.	4D\	jus-	.	.	.	.	.	.	.	.
=26	=26	=26	=26	=26	=26	=26	=26	=26	=26	=26	=26	=26	=26	=26	=26	=26
!	!	!	!	!	!	!	!	!	!	!	!	!	!	!	!	!LO:N:vis=00
4A\	.	4A\	8r	.	8r	.	8C#/	-to-	.	.	.	.	.	.	.	0.r
.	.	.	8A/L	.	8c#/L	.	8AA/	-rum	.	.	.	.	.	.	.	.
4r	.	4r	8c#/	.	8e/	.	4r	.	.	.	.	.	.	.	.	.
.	.	.	8e/J	.	8g/J	.	.	.	.	.	.	.	.	.	.	.
4A\	.	4A\	4a/	.	4a/	.	4A\	et	.	.	.	.	.	.	.	.
=27	=27	=27	=27	=27	=27	=27	=27	=27	=27	=27	=27	=27	=27	=27	=27	=27
4E\	4	4E\	4b\	.	4b\	.	8A\	con-	.	.	.	.	.	.	.	.
.	.	.	.	.	.	.	16G#X\LL	-gre-	.	.	.	.	.	.	.	.
.	.	.	.	.	.	.	16A\JJ	.	.	.	.	.	.	.	.	.
!	!	!	!	!	!	!	!LO:LB:g=original	!	!	!	!	!	!	!	!	!
4E\	#	4E\	4r	.	4r	.	4B\	-ga-	.	.	.	.	.	.	.	.
4G#X\	-5	4G#X\	4r	.	4r	.	4D/	-ti-	.	.	.	.	.	.	.	.
=28	=28	=28	=28	=28	=28	=28	=28	=28	=28	=28	=28	=28	=28	=28	=28	=28
!	!	!	!LO:TX:a:t=2	!	!LO:N:vis=0	!	!	!	!	!	!	!	!	!	!	!
!	!	!	!LO:N:vis=0	!	!	!	!	!	!	!	!	!	!	!	!	!
8A\L	.	8A\L	1.r	.	1.r	.	8C#\L	-o-	.	.	.	.	.	.	.	.
8C#\	.	8C#\	.	.	.	.	8E\J	.	.	.	.	.	.	.	.	.
8D\	.	8D\	.	.	.	.	8F#\L	.	.	.	.	.	.	.	.	.
8E\	.	8E\	.	.	.	.	8G#X\	.	.	.	.	.	.	.	.	.
8F#\	.	8F#\	.	.	.	.	8A\	.	.	.	.	.	.	.	.	.
8G#X\J	.	8G#X\J	.	.	.	.	8B\J	.	.	.	.	.	.	.	.	.
=29	=29	=29	=29	=29	=29	=29	=29	=29	=29	=29	=29	=29	=29	=29	=29	=29
!	!	!	!	!	!	!	!	!	!LO:N:vis=00	!	!LO:N:vis=00	!	!LO:N:vis=00	!	!	!
4A\	.	4A\	.	.	.	.	8c#\L	.	0.r	.	0.r	.	0.r	.	2.r	.
.	.	.	.	.	.	.	8A\J	.	.	.	.	.	.	.	.	.
4E\	#	4E\	.	.	.	.	4E\	.	.	.	.	.	.	.	.	.
4EE/	.	4EE/	.	.	.	.	4G#X\	.	.	.	.	.	.	.	.	.
!	!	!LO:LB:g=original	!	!	!	!	!	!	!	!	!	!	!	!	!	!
=30	=30	=30	=30	=30	=30	=30	=30	=30	=30	=30	=30	=30	=30	=30	=30	=30
!LO:TX:t=P:problem:mixed beam	!	!LO:TX:t=P:problem:mixed beam	!	!	!	!	!	!	!	!	!	!	!	!	!	!
8AA/L	.	8AA/L	8c#/	.	8A/	.	4A\	ne.	.	.	.	.	.	.	8r	8r
8A\	.	8A\	4A/	.	4c#/	.	.	.	.	.	.	.	.	.	8a/L	8a/L
8A\	.	8A\	.	.	.	.	4r	.	.	.	.	.	.	.	8a/	8a/
8A\	.	8A\	4c#/	.	4e/	.	.	.	.	.	.	.	.	.	8a/	8a/
8A\	.	8A\	.	.	.	.	4r	.	.	.	.	.	.	.	8a/	8a/
8A\J	.	8A\J	8e/	.	8a/	.	.	.	.	.	.	.	.	.	8a/J	8a/J
!	!	!	!	!	!	!	!	!	!	!	!	!	!	!	!	!LO:LB:g=original
=31	=31	=31	=31	=31	=31	=31	=31	=31	=31	=31	=31	=31	=31	=31	=31	=31
!	!	!	!	!	!	!	!LO:N:vis=00	!	!	!	!	!	!	!	!	!
4A\	.	4A\	8e/	.	8a\	.	0.r	.	.	.	.	.	.	.	4a/	4a/
.	.	.	4a\	.	4cc#\	.	.	.	.	.	.	.	.	.	.	.
4r	.	4r	.	.	.	.	.	.	.	.	.	.	.	.	4r	4r
.	.	.	4cc#\	.	4ee\	.	.	.	.	.	.	.	.	.	.	.
4A\	.	4A\	.	.	.	.	.	.	.	.	.	.	.	.	4r	4r
.	.	.	8ee\	.	8aa\	.	.	.	.	.	.	.	.	.	.	.
!LO:LB:g=original	!	!	!	!	!	!	!	!	!	!	!	!	!	!	!LO:LB:g=original	!
=32	=32	=32	=32	=32	=32	=32	=32	=32	=32	=32	=32	=32	=32	=32	=32	=32
4D\	.	4D\	8dd\	.	8ff#\	.	.	.	.	.	.	.	.	.	2.r	2.r
.	.	.	4cc#\	.	4ee\	.	.	.	.	.	.	.	.	.	.	.
4r	.	4r	.	.	.	.	.	.	.	.	.	.	.	.	.	.
.	.	.	4b\	.	4dd\	.	.	.	.	.	.	.	.	.	.	.
8r	.	8r	.	.	.	.	.	.	.	.	.	.	.	.	.	.
8A\	.	8A\	8a/	.	8cc#\	.	.	.	.	.	.	.	.	.	.	.
!	!	!	!LO:LB:g=original	!	!	!	!	!	!	!	!	!	!	!	!	!
=33	=33	=33	=33	=33	=33	=33	=33	=33	=33	=33	=33	=33	=33	=33	=33	=33
!	!	!	!	!	!	!	!	!	!LO:N:vis=00	!	!LO:N:vis=00	!	!LO:N:vis=00	!	!	!
4D\	7	4D\	4f#/	.	16cc#\LL	.	.	.	0.r	.	0.r	.	0.r	.	4ff#\	4ff#\
.	.	.	.	.	16a\	.	.	.	.	.	.	.	.	.	.	.
.	.	.	.	.	16b\	.	.	.	.	.	.	.	.	.	.	.
.	.	.	.	.	16cc#\JJ	.	.	.	.	.	.	.	.	.	.	.
4D#X\	6	4D#X\	4f#/	.	8b\L	.	.	.	.	.	.	.	.	.	4ff#\	4ff#\
.	.	.	.	.	8a\	.	.	.	.	.	.	.	.	.	.	.
4D#\	5	4D#\	4f#/	.	8g#X\	.	.	.	.	.	.	.	.	.	4ff#\	4ff#\
.	.	.	.	.	8f#\J	.	.	.	.	.	.	.	.	.	.	.
=34	=34	=34	=34	=34	=34	=34	=34	=34	=34	=34	=34	=34	=34	=34	=34	=34
8E\L	#	8E\L	8B/L	.	32g/LLL	.	.	.	.	.	.	.	.	.	8r	8r
.	.	.	.	.	32f#/JJ	.	.	.	.	.	.	.	.	.	.	.
.	.	.	.	.	8.e/J	.	.	.	.	.	.	.	.	.	.	.
8E\	.	8E\	8B/	.	.	.	.	.	.	.	.	.	.	.	8ee\L	8ee\L
8E\	.	8E\	8B/	.	2e/	.	.	.	.	.	.	.	.	.	8ee\	8ee\
8E\	.	8E\	8B/	.	.	.	.	.	.	.	.	.	.	.	8ee\	8ee\
8E\	.	8E\	8B/	.	.	.	.	.	.	.	.	.	.	.	8ee\	8ee\
8E\J	.	8E\J	8B/J	.	.	.	.	.	.	.	.	.	.	.	8ee\J	8ee\J
!	!	!	!	!	!LO:LB:g=original	!	!	!	!	!	!	!	!	!	!	!
=35	=35	=35	=35	=35	=35	=35	=35	=35	=35	=35	=35	=35	=35	=35	=35	=35
!	!	!	!	!	!	!	!LO:N:vis=00	!	!	!	!	!	!	!	!	!
8r	.	8r	8r	.	32a\LLL	.	0.r	.	.	.	.	.	.	.	8r	8r
.	.	.	.	.	32b\JJ	.	.	.	.	.	.	.	.	.	.	.
.	.	.	.	.	8.ccn\J	.	.	.	.	.	.	.	.	.	.	.
8A\L	-	8A\L	8e/L	.	.	.	.	.	.	.	.	.	.	.	8ee\L	8ee\L
8A\	.	8A\	8e/	.	2cc\	.	.	.	.	.	.	.	.	.	8ee\	8ee\
8A\	.	8A\	8e/	.	.	.	.	.	.	.	.	.	.	.	8ee\	8ee\
8A\	.	8A\	8e/	.	.	.	.	.	.	.	.	.	.	.	8ee\	8ee\
8A\J	.	8A\J	8e/J	.	.	.	.	.	.	.	.	.	.	.	8ee\J	8ee\J
=36	=36	=36	=36	=36	=36	=36	=36	=36	=36	=36	=36	=36	=36	=36	=36	=36
8F#\L	6\	8F#\L	8a/L	.	2.dd#Xm\	.	.	.	.	.	.	.	.	.	4ff#\	4ff#\
8F#\	.	8F#\J	8a/	.	.	.	.	.	.	.	.	.	.	.	.	.
!	!	!LO:PB:g=original	!	!	!	!	!	!	!	!	!	!	!	!	!	!
8B\	#	8B\L	8f#/	.	.	.	.	.	.	.	.	.	.	.	4r	4r
8B\	.	8B\	8f#/	.	.	.	.	.	.	.	.	.	.	.	.	.
8B\	.	8B\	8f#/	.	.	.	.	.	.	.	.	.	.	.	4r	4r
8A\J	4 2	8A\J	8f#/J	.	.	.	.	.	.	.	.	.	.	.	.	.
=37	=37	=37	=37	=37	=37	=37	=37	=37	=37	=37	=37	=37	=37	=37	=37	=37
!	!	!	!	!	!	!	!	!	!LO:N:vis=00	!	!LO:N:vis=00	!	!LO:N:vis=00	!	!	!
4G#X\	6	4G#X\	4b\	.	4ee\	.	.	.	0.r	.	0.r	.	0.r	.	2.r	2.r
!	!	!	!	!	!LO:TUP:a	!	!	!	!	!	!	!	!	!	!	!
4G#\	5	4G#\	4b\	.	12ddn\L	.	.	.	.	.	.	.	.	.	.	.
.	.	.	.	.	12cc#\	.	.	.	.	.	.	.	.	.	.	.
.	.	.	.	.	12b\J	.	.	.	.	.	.	.	.	.	.	.
!	!	!	!	!	!LO:TUP:a	!	!	!	!	!	!	!	!	!	!	!
4G#\	-	4G#\	4e/	.	12dd\L	.	.	.	.	.	.	.	.	.	.	.
.	.	.	.	.	12cc#\	.	.	.	.	.	.	.	.	.	.	.
.	.	.	.	.	12b\J	.	.	.	.	.	.	.	.	.	.	.
=38	=38	=38	=38	=38	=38	=38	=38	=38	=38	=38	=38	=38	=38	=38	=38	=38
!	!	!	!	!	!LO:TUP:a	!	!	!	!	!	!	!	!	!	!	!
4A\	.	4A\	4e/	.	12cc#\L	.	.	.	.	.	.	.	.	.	4ee\	4aa\
.	.	.	.	.	12b\	.	.	.	.	.	.	.	.	.	.	.
.	.	.	.	.	12a\J	.	.	.	.	.	.	.	.	.	.	.
!	!	!	!	!	!LO:TUP:a	!	!	!	!	!	!	!	!	!	!	!
4c#\	.	4c#\	4e/	.	12cc#\L	.	.	.	.	.	.	.	.	.	4ee\	4aa\
.	.	.	.	.	12b\	.	.	.	.	.	.	.	.	.	.	.
.	.	.	.	.	12a\J	.	.	.	.	.	.	.	.	.	.	.
!	!	!	!	!	!LO:TUP:a	!	!	!	!	!	!	!	!	!	!	!
4e\	.	4e\	4B/	.	12b\L	.	.	.	.	.	.	.	.	.	4ee\	4gg#X\
.	.	.	.	.	12a\	.	.	.	.	.	.	.	.	.	.	.
.	.	.	.	.	12g#X\J	.	.	.	.	.	.	.	.	.	.	.
=39	=39	=39	=39	=39	=39	=39	=39	=39	=39	=39	=39	=39	=39	=39	=39	=39
*	*	*	*	*	*	*	*	*	*	*	*	*	*	*	*2\right	*
4A\	.	4A\	4c#/	.	4a/	.	(4AA/	ma-	.	.	.	.	.	.	2ee\	4aa\
4r	.	4r	4r	.	4r	.	4C#/)	.	.	.	.	.	.	.	.	4r
4r	.	4r	4r	.	4r	.	4E/	-gna	.	.	.	.	.	.	4r	4r
!LO:LB:g=original	!	!	!	!	!LO:LB:g=original	!	!	!	!	!	!	!	!	!	!	!
=40	=40	=40	=40	=40	=40	=40	=40	=40	=40	=40	=40	=40	=40	=40	=40	=40
*	*	*	*	*	*	*	*2\right	*	*	*	*	*	*	*	*	*
!	!	!	!	!	!	!	!	!	!	!	!	!	!	!	!LO:N:vis=00	!LO:N:vis=00
4AA/	.	4AA/	8A/	.	8A/	.	2A\	o-	.	.	.	.	.	.	0.r	0.r
.	.	.	4c#/	.	4c#/	.	.	.	.	.	.	.	.	.	.	.
4C#/	.	4C#/	.	.	.	.	.	.	.	.	.	.	.	.	.	.
.	.	.	4e/	.	4e/	.	.	.	.	.	.	.	.	.	.	.
4E/	#	4E/	.	.	.	.	4G#X\	.	.	.	.	.	.	.	.	.
.	.	.	8g#X/	.	8g#X/	.	.	.	.	.	.	.	.	.	.	.
!	!	!	!LO:LB:g=original	!	!	!	!LO:LB:g=original	!	!	!	!	!	!	!	!	!
=41	=41	=41	=41	=41	=41	=41	=41	=41	=41	=41	=41	=41	=41	=41	=41	=41
!	!	!	!	!	!	!	!	!	!LO:N:vis=00	!	!LO:N:vis=00	!	!LO:N:vis=00	!	!	!
4A\	.	4A\	4a/	.	4a/	.	8A\L	.	0.r	.	0.r	.	0.r	.	.	.
.	.	.	.	.	.	.	16G#X\L	.	.	.	.	.	.	.	.	.
.	.	.	.	.	.	.	16A\JJ	.	.	.	.	.	.	.	.	.
4r	.	4r	4r	.	4r	.	8B\L	.	.	.	.	.	.	.	.	.
.	.	.	.	.	.	.	8A\J	.	.	.	.	.	.	.	.	.
4D\	.	4D\	4r	.	4r	.	8G#X\	-pe-	.	.	.	.	.	.	.	.
.	.	.	.	.	.	.	8F#\	-ra	.	.	.	.	.	.	.	.
=42	=42	=42	=42	=42	=42	=42	=42	=42	=42	=42	=42	=42	=42	=42	=42	=42
8E\L	.	8E\L	4r	.	4r	.	8G\	Do-	.	.	.	.	.	.	.	.
8E\	#	8E\	.	.	.	.	8F#\	-mi-	.	.	.	.	.	.	.	.
8E\	.	8E\	8r	.	8r	.	2E\	-ni	.	.	.	.	.	.	.	.
8E\	.	8E\J	8e/L	.	8e/L	.	.	.	.	.	.	.	.	.	.	.
!	!	!LO:LB:g=original	!	!	!	!	!	!	!	!	!	!	!	!	!	!
8E\	.	8E\L	8g#X/	.	8g#X/	.	.	.	.	.	.	.	.	.	.	.
8E\J	.	8E\J	8b/J	.	8b/J	.	.	.	.	.	.	.	.	.	.	.
=43	=43	=43	=43	=43	=43	=43	=43	=43	=43	=43	=43	=43	=43	=43	=43	=43
8r	.	8r	4ee\	.	4ee\	.	4r	.	.	.	.	.	.	.	.	.
8E\L	#	8E\L	.	.	.	.	.	.	.	.	.	.	.	.	.	.
8D\	6 7	8D\	4e/	.	4e/	.	8r	.	.	.	.	.	.	.	.	.
(8D\	.	8D\	.	.	.	.	8E\L	ea-	.	.	.	.	.	.	.	.
8D\	.	8D\	4r	.	4r	.	8F#\J	.	.	.	.	.	.	.	.	.
8D\J)	.	8D\J	.	.	.	.	8G#X\	-qui-	.	.	.	.	.	.	.	.
=44	=44	=44	=44	=44	=44	=44	=44	=44	=44	=44	=44	=44	=44	=44	=44	=44
!	!	!	!LO:TX:a:t=11	!	!LO:N:vis=00	!	!	!	!	!	!	!	!	!	!	!
!	!	!	!LO:N:vis=00	!	!	!	!	!	!	!	!	!	!	!	!LO:N:vis=00	!LO:N:vis=00
8C#/L	.	8C#/L	0.r	.	0.r	.	(8A\L	-si-	.	.	.	.	.	.	0.r	0.r
8AA/	.	8AA/	.	.	.	.	8E\J)	.	.	.	.	.	.	.	.	.
8AA/	.	8AA/	.	.	.	.	8AA/	-ta	.	.	.	.	.	.	.	.
8AA/	.	8AA/	.	.	.	.	8A\L	.	.	.	.	.	.	.	.	.
8GGn/	4 2	8GGn/	.	.	.	.	8B\J	.	.	.	.	.	.	.	.	.
8GG/J	.	8GG/J	.	.	.	.	8c#\	.	.	.	.	.	.	.	.	.
=45	=45	=45	=45	=45	=45	=45	=45	=45	=45	=45	=45	=45	=45	=45	=45	=45
!	!	!	!	!	!	!	!	!	!LO:N:vis=00	!	!LO:N:vis=00	!	!LO:N:vis=00	!	!	!
4FF#/	6	4FF#/	.	.	.	.	8d\L	.	0.r	.	0.r	.	0.r	.	.	.
.	.	.	.	.	.	.	8A\J	.	.	.	.	.	.	.	.	.
4D\	6	4D\	.	.	.	.	8D/	.	.	.	.	.	.	.	.	.
!	!	!	!	!	!	!	!LO:LB:g=original	!	!	!	!	!	!	!	!	!
.	.	.	.	.	.	.	8d\	in	.	.	.	.	.	.	.	.
4D\	5	4D\	.	.	.	.	8B\	om-	.	.	.	.	.	.	.	.
.	.	.	.	.	.	.	8A\	-nes	.	.	.	.	.	.	.	.
=46	=46	=46	=46	=46	=46	=46	=46	=46	=46	=46	=46	=46	=46	=46	=46	=46
4E\	#	4E\	.	.	.	.	(8G#X\L	vo-	.	.	.	.	.	.	.	.
.	.	.	.	.	.	.	8E\J)	.	.	.	.	.	.	.	.	.
4D\	4 2	4D\	.	.	.	.	(8F#\L	-lun-	.	.	.	.	.	.	.	.
.	.	.	.	.	.	.	8G#\J)	.	.	.	.	.	.	.	.	.
8C#\L	.	8C#\L	.	.	.	.	8A\	-ta-	.	.	.	.	.	.	.	.
8D\J	.	8D\J	.	.	.	.	8B\	-tis	.	.	.	.	.	.	.	.
!LO:LB:g=original	!	!	!	!	!	!	!	!	!	!	!	!	!	!	!	!
=47	=47	=47	=47	=47	=47	=47	=47	=47	=47	=47	=47	=47	=47	=47	=47	=47
8AA/L	.	8AA/L	.	.	.	.	8c#\L	e-	.	.	.	.	.	.	.	.
8D/J	.	8D/J	.	.	.	.	8A\J	.	.	.	.	.	.	.	.	.
4E\	6 4	4E\	.	.	.	.	2G#X\	.	.	.	.	.	.	.	.	.
4EE/	#	4EE/	.	.	.	.	.	.	.	.	.	.	.	.	.	.
=48	=48	=48	=48	=48	=48	=48	=48	=48	=48	=48	=48	=48	=48	=48	=48	=48
!	!	!	!LO:N:vis=00	!	!	!	!	!	!	!	!	!	!	!	!LO:N:vis=00	!LO:N:vis=00
4AA/	.	4AA/	0.r	.	8a/	.	4A\	-jus	.	.	.	.	.	.	0.r	0.r
.	.	.	.	.	4cc#\	.	.	.	.	.	.	.	.	.	.	.
4r	.	4r	.	.	.	.	4r	.	.	.	.	.	.	.	.	.
.	.	.	.	.	4ee\	.	.	.	.	.	.	.	.	.	.	.
!	!	!LO:LB:g=original	!	!	!	!	!	!	!	!	!	!	!	!	!	!
4A\	.	4A\	.	.	.	.	4A\	con-	.	.	.	.	.	.	.	.
.	.	.	.	.	8aa\	.	.	.	.	.	.	.	.	.	.	.
=49	=49	=49	=49	=49	=49	=49	=49	=49	=49	=49	=49	=49	=49	=49	=49	=49
!	!	!	!	!	!	!	!	!	!LO:N:vis=00	!	!LO:N:vis=00	!	!LO:N:vis=00	!	!	!
4F#\	6	4F#\	.	.	8ff#\	.	4.d\	-feſ-	0.r	.	0.r	.	0.r	.	.	.
.	.	.	.	.	4d/	.	.	.	.	.	.	.	.	.	.	.
4D\	.	4D\	.	.	.	.	.	.	.	.	.	.	.	.	.	.
.	.	.	.	.	4f#/	.	8D/	-si-	.	.	.	.	.	.	.	.
8F#\L	.	8F#\L	.	.	.	.	4D/	-o	.	.	.	.	.	.	.	.
8E\J	.	8E\J	.	.	8a/	.	.	.	.	.	.	.	.	.	.	.
!	!	!	!	!	!LO:LB:g=original	!	!	!	!	!	!	!	!	!	!	!
=50	=50	=50	=50	=50	=50	=50	=50	=50	=50	=50	=50	=50	=50	=50	=50	=50
4D\	.	4D\	.	.	4.ff#\	.	4.A\	et	.	.	.	.	.	.	.	.
4r	.	4r	.	.	.	.	.	.	.	.	.	.	.	.	.	.
.	.	.	.	.	8dd\L	.	8F#\	mag-	.	.	.	.	.	.	.	.
4D\	6 4	4D\	.	.	8gg\	.	8B\	-ni-	.	.	.	.	.	.	.	.
.	5 3	.	.	.	8ff#\J	.	8A\	-fi-	.	.	.	.	.	.	.	.
!	!	!	!	!	!	!	!LO:LB:g=original	!	!	!	!	!	!	!	!	!
=51	=51	=51	=51	=51	=51	=51	=51	=51	=51	=51	=51	=51	=51	=51	=51	=51
!	!	!	!	!	!LO:TX:t=P:problem:mixed beam	!	!	!	!	!	!	!	!	!	!	!
4E\	-	4E\	.	.	8ee\L	.	4G\	-cen-	.	.	.	.	.	.	.	.
.	.	.	.	.	8e/J	.	.	.	.	.	.	.	.	.	.	.
4r	.	4r	.	.	8aa\L	.	8F#\	-ti-	.	.	.	.	.	.	.	.
.	.	.	.	.	8gg\	.	8E\	-a	.	.	.	.	.	.	.	.
4AA/	6 6	4AA/	.	.	8ff#\	.	8A\	o-	.	.	.	.	.	.	.	.
.	7 5	.	.	.	8ee\J	.	8F#\	-pus	.	.	.	.	.	.	.	.
=52	=52	=52	=52	=52	=52	=52	=52	=52	=52	=52	=52	=52	=52	=52	=52	=52
!	!	!	!LO:N:vis=0	!	!	!	!	!	!	!	!	!	!	!	!LO:N:vis=00	!LO:N:vis=00
4D\	.	4D\	1.r	.	8dd\	.	4F#\	e-	.	.	.	.	.	.	0.r	0.r
.	.	.	.	.	4d/	.	.	.	.	.	.	.	.	.	.	.
4r	.	4r	.	.	.	.	4D\	-jus	.	.	.	.	.	.	.	.
.	.	.	.	.	8f#/L	.	.	.	.	.	.	.	.	.	.	.
4D\	6 4	4D\	.	.	8g/	.	8B\	et	.	.	.	.	.	.	.	.
.	5 3	.	.	.	8f#/J	.	8A\	ju-	.	.	.	.	.	.	.	.
=53	=53	=53	=53	=53	=53	=53	=53	=53	=53	=53	=53	=53	=53	=53	=53	=53
!	!	!	!	!	!LO:TX:t=P:problem:mixed beam	!	!	!	!LO:N:vis=00	!	!LO:N:vis=00	!	!LO:N:vis=00	!	!	!
4E\	.	4E\	.	.	8e/L	.	4G\	-sti-	0.r	.	0.r	.	0.r	.	.	.
.	.	.	.	.	8ee\J	.	.	.	.	.	.	.	.	.	.	.
4r	.	4r	.	.	8aa\L	.	8F#\	-ti-	.	.	.	.	.	.	.	.
.	.	.	.	.	8gg\	.	8E\	-a	.	.	.	.	.	.	.	.
4A\	7	4A\	.	.	8ff#\	.	8A\	e-	.	.	.	.	.	.	.	.
.	.	.	.	.	8ee\J	.	8G\	-jus	.	.	.	.	.	.	.	.
=54	=54	=54	=54	=54	=54	=54	=54	=54	=54	=54	=54	=54	=54	=54	=54	=54
4D\	.	4D\	2.r	.	8dd\	.	4F#\	ma-	.	.	.	.	.	.	.	.
.	.	.	.	.	4d/	.	.	.	.	.	.	.	.	.	.	.
4F#\	.	4F#\	.	.	.	.	4D\	-net	.	.	.	.	.	.	.	.
.	.	.	.	.	8f#/L	.	.	.	.	.	.	.	.	.	.	.
4D\	.	4D\	.	.	8e/	.	(8F#\L	ma-	.	.	.	.	.	.	.	.
.	.	.	.	.	8d/J	.	8G\J)	.	.	.	.	.	.	.	.	.
!LO:LB:g=original	!	!	!	!	!LO:LB:g=original	!	!	!	!	!	!	!	!	!	!	!
=55	=55	=55	=55	=55	=55	=55	=55	=55	=55	=55	=55	=55	=55	=55	=55	=55
8r	.	8r	8r	.	8r	.	2.A\	.	.	.	.	.	.	.	.	.
8C#/L	6	8C#/L	8e/L	.	4aa\	.	.	.	.	.	.	.	.	.	.	.
8C#/	.	8C#/	8e/	.	.	.	.	.	.	.	.	.	.	.	.	.
8C#/	.	8C#/	8e/	.	4ee\	.	.	.	.	.	.	.	.	.	.	.
8C#/	.	8C#/	8e/	.	.	.	.	.	.	.	.	.	.	.	.	.
8C#/J	.	8C#/J	8e/J	.	8cc#\	.	.	.	.	.	.	.	.	.	.	.
=56	=56	=56	=56	=56	=56	=56	=56	=56	=56	=56	=56	=56	=56	=56	=56	=56
!	!	!	!	!	!	!	!	!	!	!	!	!	!	!	!LO:N:vis=00	!LO:N:vis=00
8D\L	.	8D\L	4f#/	.	4a/	.	16A\LL	.	.	.	.	.	.	.	0.r	0.r
.	.	.	.	.	.	.	16d\	.	.	.	.	.	.	.	.	.
8F#\	6	8F#\	.	.	.	.	16c#\	.	.	.	.	.	.	.	.	.
.	.	.	.	.	.	.	16B\JJ	.	.	.	.	.	.	.	.	.
!	!	!	!	!	!	!	!LO:LB:g=original	!	!	!	!	!	!	!	!	!
8F#\	.	8F#\	4r	.	4r	.	16A\LL	.	.	.	.	.	.	.	.	.
.	.	.	.	.	.	.	16d\	.	.	.	.	.	.	.	.	.
8F#\	.	8F#\	.	.	.	.	16c#\	.	.	.	.	.	.	.	.	.
.	.	.	.	.	.	.	16B\JJ	.	.	.	.	.	.	.	.	.
8F#\	.	8F#\	4r	.	4r	.	16A\LL	.	.	.	.	.	.	.	.	.
.	.	.	.	.	.	.	16d\	.	.	.	.	.	.	.	.	.
8F#\J	.	8F#\J	.	.	.	.	16c#\	.	.	.	.	.	.	.	.	.
.	.	.	.	.	.	.	16B\JJ	.	.	.	.	.	.	.	.	.
=57	=57	=57	=57	=57	=57	=57	=57	=57	=57	=57	=57	=57	=57	=57	=57	=57
!	!	!	!	!	!	!	!	!	!LO:N:vis=00	!	!LO:N:vis=00	!	!LO:N:vis=00	!	!	!
8r	.	8r	8r	.	8r	.	2.A\	.	0.r	.	0.r	.	0.r	.	.	.
8C#/L	6	8C#/L	8a/L	.	8ee\L	.	.	.	.	.	.	.	.	.	.	.
8C#/	.	8C#/	8a/	.	8ee\	.	.	.	.	.	.	.	.	.	.	.
8C#/	.	8C#/	8a/	.	8ee\	.	.	.	.	.	.	.	.	.	.	.
8C#/	.	8C#/	8a/	.	8ee\	.	.	.	.	.	.	.	.	.	.	.
8C#/J	.	8C#/J	8a/J	.	8ee\J	.	.	.	.	.	.	.	.	.	.	.
=58	=58	=58	=58	=58	=58	=58	=58	=58	=58	=58	=58	=58	=58	=58	=58	=58
4AA/	.	4AA/	4cc#\	.	4ee\	.	4A\	.	.	.	.	.	.	.	.	.
4GGn/	5 3	4GGn/	4r	.	4r	.	8B\L	.	.	.	.	.	.	.	.	.
.	.	.	.	.	.	.	8c#\J	.	.	.	.	.	.	.	.	.
8FF#/L	.	8FF#/L	4r	.	4r	.	8d\	-net	.	.	.	.	.	.	.	.
8AA/J	.	8AA/J	.	.	.	.	8A\	in	.	.	.	.	.	.	.	.
!	!	!	!LO:LB:g=original	!	!	!	!	!	!	!	!	!	!	!	!	!
=59	=59	=59	=59	=59	=59	=59	=59	=59	=59	=59	=59	=59	=59	=59	=59	=59
8BB/L	-	8BB/L	2.r	.	2.r	.	8B\	sae-	.	.	.	.	.	.	.	.
8GG/J	.	8GG/J	.	.	.	.	16G\	-cu-	.	.	.	.	.	.	.	.
.	.	.	.	.	.	.	16G\	-lum	.	.	.	.	.	.	.	.
4AA/	.	4AA/	.	.	.	.	4A\	sae-	.	.	.	.	.	.	.	.
4AA/	.	4AA/	.	.	.	.	4AA/	-cu-	.	.	.	.	.	.	.	.
=60	=60	=60	=60	=60	=60	=60	=60	=60	=60	=60	=60	=60	=60	=60	=60	=60
!	!	!	!LO:TX:a:i:t=Tutti	!	!	!LO:DY:a:t=for.	!	!	!	!	!	!	!	!	!	!
4D\	.	4D\	8f#/	.	8d/	f	4D\	-li.	.	.	.	.	.	.	8ff#\	8aa\
.	.	.	4d/	.	4f#/	.	.	.	.	.	.	.	.	.	4dd\	4ff#\
!LO:TX:a:i:t=Tutti	!	!LO:TX:a:i:t=Tut&colon;	!	!	!	!	!	!	!	!	!	!	!	!	!	!
4D\	.	4D\	.	.	.	.	4r	.	.	.	.	.	.	.	.	.
.	.	.	4f#/	.	4a/	.	.	.	.	.	.	.	.	.	4a\	4dd\
4D\	.	4D\	.	.	.	.	4r	.	.	.	.	.	.	.	.	.
.	.	.	8a/	.	8dd\	.	.	.	.	.	.	.	.	.	8dd\	8ff#\
!	!	!	!	!	!	!	!LO:LB:g=original	!	!	!	!	!	!	!	!	!LO:LB:g=original
=61	=61	=61	=61	=61	=61	=61	=61	=61	=61	=61	=61	=61	=61	=61	=61	=61
!	!	!	!	!	!	!	!	!	!	!	!	!	!LO:TX:a:i:t=Tutti	!	!	!
4D\	.	4D\	8a/	.	8dd\	.	4D/	me-	4d\	Me-	4a\	Me-	4a\	me-	8dd\	8ee\
.	.	.	4dd\	.	4ff#\	.	.	.	.	.	.	.	.	.	4ff#\	4aa\
4r	.	4r	.	.	.	.	4D/	-mo-	4A\	-mo-	8a\	-mo-	8dd\	-mo-	.	.
.	.	.	4ff#\	.	4aa\	.	.	.	.	.	8a\	-ri-	8dd\	-ri-	4dd\	4ff#\
4D\	.	4D\	.	.	.	.	8D/	-ri-	8d\	-ri-	4a\	-am	4ff#\	-am	.	.
.	.	.	8aa\	.	8ddd\	.	8D/	-am	8d\	-am	.	.	.	.	8ff#\	8aa\
!LO:LB:g=original	!	!LO:LB:g=original	!	!	!LO:LB:g=original	!	!	!	!	!	!	!	!	!	!	!
=62	=62	=62	=62	=62	=62	=62	=62	=62	=62	=62	=62	=62	=62	=62	=62	=62
!	!	!	!	!	!	!	!	!	!	!	!	!	!	!	!LO:TX:t=P:problem:brakujący takt	!
4D\	6 4	4D\	8gg\	.	8bb\	.	8D/	fe-	4d\	fe-	8b\	fe-	8gg\	fe-	2.ryy	4bb\
.	.	.	4ff#\	.	4aa\	.	4D/	-cit	.	.	4a\	-cit	4ff#\	-cit	.	.
4D\	5 3	4D\	.	.	.	.	.	.	4d\	-cit	.	.	.	.	.	4r
.	.	.	4ee\	.	4gg\	.	4D/	mi-	.	.	4g\	mi-	4ee\	mi-	.	.
4D\	4 2	4D\	.	.	.	.	.	.	8d\	mi-	.	.	.	.	.	4r
!	!	!	!	!	!	!	!	!	!	!	!	!	!LO:LB:g=original	!	!	!
.	.	.	8dd\	.	8ff#\	.	8D/	-ra-	8d\	-ra-	8f#\	-ra-	8dd\	-ra-	.	.
=63	=63	=63	=63	=63	=63	=63	=63	=63	=63	=63	=63	=63	=63	=63	=63	=63
4G\	67	4G\	8b\L	.	16ff#\LL	.	4.G\	-bi-	4.B\	-bi-	4b\	-bi-	16ff#\LL	-bi-	4r	8r
.	.	.	.	.	16dd\	.	.	.	.	.	.	.	16dd\JJ	.	.	.
.	.	.	8b\	.	16ee\	.	.	.	.	.	.	.	16ee\LL	-li-	.	8ee\L
.	.	.	.	.	16ff#\JJ	.	.	.	.	.	.	.	16ff#\JJ	.	.	.
8G#X\L	7	8G#X\L	8b\	.	8ee\L	.	.	.	.	.	4b\	-li-	8ee\L	-um	8ee\L	8ee\
8G#\	.	8G#\	8b\	.	8dd\	.	8G#X\	-li-	8e\	-li-	.	.	8dd\J	.	8ee\	8ee\
8G#\	6	8G#\	8b\	.	8cc#\	.	8G#\	-um	8e\	-um	4b\	-um	8cc#\L	su-	8ee\	8ee\
8G#\J	.	8G#\J	8b\J	.	8b\J	.	8G#\	su-	8e\	su-	.	.	8b\J	.	8ee\J	8ee\J
!	!	!	!	!	!	!	!	!	!LO:LB:g=original	!	!LO:LB:g=original	!	!	!	!	!
=64	=64	=64	=64	=64	=64	=64	=64	=64	=64	=64	=64	=64	=64	=64	=64	=64
!	!	!	!	!	!	!	!	!	!	!	!	!	!	!	!LO:TX:t=P:problem:mixed beam	!
8A\L	.	8A\L	8e/L	.	32cc#\LLL	.	4A\	-o-	8e\L	-o-	8e\	su-	32cc#\LLL	-o-	8ee\L	8ee/L
.	.	.	.	.	32b\JJ	.	.	.	.	.	.	.	32b\JJ	.	.	.
.	.	.	.	.	8.a\J	.	.	.	.	.	.	.	8.a\J	.	.	.
8A\	.	8A\	8c#/	.	.	.	.	.	8d\J	.	8e\	-o-	.	.	8a/	8a/
8A\	.	8A\	8c#/	.	2a/	.	8A\	-rum	8c#\	-rum	8e\	-rum	8a\	-rum	8a/	8a/
8A\	.	8A\	8c#/	.	.	.	8A\	mi-	8c#\	mi-	8e\	mi-	8a\	mi-	8a/	8a/
8A\	.	8A\	8c#/	.	.	.	8A\	-se-	8c#\	-se-	8e\	-se-	8a\	-se-	8a/	8a/
8A\J	.	8A\J	8c#/J	.	.	.	8A\	-ri-	8c#\	-ri-	8e\	-ri-	8a\	-ri-	8a/J	8a/J
=65	=65	=65	=65	=65	=65	=65	=65	=65	=65	=65	=65	=65	=65	=65	=65	=65
8G#X\L	6 5	8G#X\L	8b\L	.	32b\LLL	.	4G#X\	-cors	4.B\	-cors	4.e\	-cors	32b\LLL	-cors	2.r	2.r
.	.	.	.	.	32cc#\JJ	.	.	.	.	.	.	.	32cc#\JJ	.	.	.
.	.	.	.	.	8.dd\J	.	.	.	.	.	.	.	8.dd\J	.	.	.
8G#\	.	8G#\	8b\	.	.	.	.	.	.	.	.	.	.	.	.	.
8G#\	.	8G#\	8b\	.	2dd\	.	4G#\	et	.	.	.	.	8dd\	.	.	.
8G#\	.	8G#\	8b\	.	.	.	.	.	8B\	et	8e\	et	8dd\	et	.	.
8G#\	.	8G#\	8b\	.	.	.	8G#\	mi-	8B\	mi-	8e\	mi-	8dd\	mi-	.	.
8G#\J	.	8G#\J	8b\J	.	.	.	8G#\	-se-	8B\	-se-	8e\	-se-	8dd\	-se-	.	.
!	!	!	!LO:LB:g=original	!	!	!	!LO:LB:g=original	!	!	!	!	!	!	!	!	!
=66	=66	=66	=66	=66	=66	=66	=66	=66	=66	=66	=66	=66	=66	=66	=66	=66
*	*	*	*	*	*Xtuplet	*	*	*	*	*	*	*	*	*	*	*
4A\	.	4A\	4a/	.	12cc#\L	.	4A\	-ra-	4A\	-ra-	4e\	-ra-	4cc#\	-ra-	4ee\	4aa\
.	.	.	.	.	12b\	.	.	.	.	.	.	.	.	.	.	.
.	.	.	.	.	12a\J	.	.	.	.	.	.	.	.	.	.	.
4C#/	.	4C#/	4a/	.	12cc#\L	.	4C#/	-tor	4A\	-tor	4e\	-tor	4cc#\	-tor	4ee\	4aa\
.	.	.	.	.	12b\	.	.	.	.	.	.	.	.	.	.	.
.	.	.	.	.	12a\J	.	.	.	.	.	.	.	.	.	.	.
!	!	!	!	!	!	!	!	!	!	!	!	!	!LO:LB:g=original	!	!	!
4E\	#	4E\	4B/	.	12b\L	.	8E\	Do-	8B\	Do-	8e\	Do-	8b\	Do-	4ee\	4gg#X\
.	.	.	.	.	12a\	.	.	.	.	.	.	.	.	.	.	.
.	.	.	.	.	.	.	8E\	-mi-	8B\	-mi-	8e\	-mi-	8g#X\	-mi-	.	.
.	.	.	.	.	12g#X\J	.	.	.	.	.	.	.	.	.	.	.
!	!	!	!	!	!LO:LB:g=original	!	!	!	!	!	!	!	!	!	!	!
=67	=67	=67	=67	=67	=67	=67	=67	=67	=67	=67	=67	=67	=67	=67	=67	=67
4AA/	.	4AA/	2.c#/	.	2.a/	.	4AA/	-nus	4c#\	-nus	4e\	-nus	4a\	-nus	8a/L	8aa\L
.	.	.	.	.	.	.	.	.	.	.	.	.	.	.	8a/	8ee\
!LO:TX:a:t=|	!	!	!	!	!	!	!	!	!	!	!	!	!	!	!	!
8A\L	.	8A\L	.	.	.	.	4r	.	4r	.	4r	.	4r	.	8a/	8ee\
!LO:TX:a:t=|	!	!	!	!	!	!	!	!	!	!	!	!	!	!	!	!
8Gn\	.	8Gn\	.	.	.	.	.	.	.	.	.	.	.	.	8a/	8ee\
!LO:TX:a:t=|	!	!	!	!	!	!	!	!	!	!	!	!	!	!	!	!
8F#\	.	8F#\	.	.	.	.	4r	.	4r	.	4r	.	4r	.	8a/	8ee\
!LO:TX:a:t=|	!	!	!	!	!	!	!	!	!	!	!	!	!	!	!	!
8E\J	.	8E\J	.	.	.	.	.	.	.	.	.	.	.	.	8a/J	8ee\J
!	!	!LO:LB:g=original	!	!	!	!	!	!	!	!	!	!	!	!	!LO:LB:g=original	!
=68	=68	=68	=68	=68	=68	=68	=68	=68	=68	=68	=68	=68	=68	=68	=68	=68
*	*	*	*	*	*	*	*	*	*2\right	*	*2\right	*	*2\right	*	*	*
8D\L	.	8D\L	8f#/	.	8d/	.	2D\	es-	2d\	es-	2a\	es-	2dd\	es-	4dd\	8ff#\L
8D\	.	8D\	4d/	.	4f#/	.	.	.	.	.	.	.	.	.	.	8ff#\
8D\	.	8D\	.	.	.	.	.	.	.	.	.	.	.	.	8dd\L	8ff#\
8D\	5	8D\	4f#/	.	4a/	.	.	.	.	.	.	.	.	.	8dd\	8ff#\
8F#\	.	8F#\	.	.	.	.	4F#\	-cam	4d\	-cam	4a\	-cam	4ccn\	-cam	8dd\	8ff#\
8F#\J	6	8F#\J	8a/	.	8ccn/	.	.	.	.	.	.	.	.	.	8dd\J	8ff#\J
!LO:LB:g=original	!	!	!	!	!	!	!	!	!	!	!LO:LB:g=original	!	!	!	!	!LO:LB:g=original
=69	=69	=69	=69	=69	=69	=69	=69	=69	=69	=69	=69	=69	=69	=69	=69	=69
!LO:TX:b:t=|	!	!	!	!	!	!	!	!	!	!	!	!	!	!	!	!
4GG/	.	4GG/	4G/	.	4G/	.	4G\	de-	8d\	de-	8d\	de-	8b\	de-	4dd\	4dd\
.	.	.	.	.	.	.	.	.	8d\	-dit	8d\	-dit	8b\	-dit	.	.
!LO:TX:b:t=|	!	!	!	!	!	!	!	!	!	!	!	!	!	!	!	!
4BB/	.	4BB/	4B/	.	4B/	.	4G\	-dit	4r	.	4r	.	4r	.	4r	4r
!LO:TX:b:t=|	!	!	!	!	!	!	!	!	!	!	!	!	!	!	!	!
4D/	.	4D/	4d/	.	4d/	.	4r	.	4r	.	4r	.	4r	.	4r	4r
!	!	!	!	!	!	!	!	!	!LO:LB:g=original	!	!	!	!	!	!	!
=70	=70	=70	=70	=70	=70	=70	=70	=70	=70	=70	=70	=70	=70	=70	=70	=70
!	!	!	!LO:TX:a:t=de	!	!	!	!	!	!	!	!	!	!	!	!	!
!	!	!	!LO:TX:a:t=Vi	!	!	!	!	!	!	!	!	!	!	!	!	!
*	*	*	*	*	*	*	*	*ij	*	*	*	*ij	*	*ij	*	*
8E\L	#	8E\L	8e/	.	8e/	.	2E\	es-	(4B\	es-	2b\	es-	2ee\	es-	4ee\	8ee\L
8E\	.	8E\	4e/	.	4g#X/	.	.	.	.	.	.	.	.	.	.	8ee\
8E\	.	8E\	.	.	.	.	.	.	4e\)	.	.	.	.	.	8ee\L	8ee\
8G#X\	6	8G#X\	4g#X/	.	4b/	.	.	.	.	.	.	.	.	.	8ee\	8ee\
8G#\	5	8G#\	.	.	.	.	4G#X\	-cam	4e\	-cam	4b\	-cam	4dd\	-cam	8ee\	8ee\
8G#\J	-	8G#\J	8b/	.	8dd\	.	.	.	.	.	.	.	.	.	8ee\J	8ee\J
=71	=71	=71	=71	=71	=71	=71	=71	=71	=71	=71	=71	=71	=71	=71	=71	=71
!LO:TX:b:t=|	!	!	!	!	!	!	!	!	!	!	!	!	!	!	!	!
4AA/	.	4AA/	4A/	.	4A/	.	8A\	de-	8e\	de-	8e\	de-	8cc#X\	de-	4a/	4ee\
.	.	.	.	.	.	.	8A\	-dit	8e\	-dit	8e\	-dit	8cc#\	-dit	.	.
*	*	*	*	*	*	*	*	*	*	*	*	*Xij	*	*Xij	*	*
!LO:TX:b:t=|	!	!	!	!	!	!	!	!	!	!	!	!	!	!	!	!
4C#/	.	4C#/	4c#/	.	4c#/	.	4r	.	4r	.	4r	.	4r	.	4r	4r
!LO:TX:b:t=|	!	!	!	!	!	!	!	!	!	!	!	!	!	!	!	!
4E/	.	4E/	4e/	.	4e/	.	4r	.	4r	.	4r	.	4r	.	4r	4r
=72	=72	=72	=72	=72	=72	=72	=72	=72	=72	=72	=72	=72	=72	=72	=72	=72
!	!	!	!LO:TX:a:t=re	!	!	!	!	!	!	!	!	!	!	!	!	!
4A\	.	4A\	8A/	.	8A/	.	2A\	es-	4r	.	8r	.	8r	.	8r	8r
.	.	.	4ff#\	.	4aa\	.	.	.	.	.	(4a\	es-	(4ff#\	es-	4ff#\	4aa\
4r	.	4r	.	.	.	.	.	.	4A/	es-	.	.	.	.	.	.
.	.	.	4gg\	.	4bb\	.	.	.	.	.	4b\)	.	4gg\)	.	4gg\	4bb\
4r	.	4r	.	.	.	.	4A\	-cam	4A/	-cam	.	.	.	.	.	.
.	.	.	8ff#\	.	8aa\	.	.	.	.	.	8a\	-cam	8ff#\	-cam	8ff#\	8aa\
!	!	!	!	!	!LO:PB:g=original	!	!	!	!	!	!	!	!LO:LB:g=original	!	!	!
=73	=73	=73	=73	=73	=73	=73	=73	=73	=73	=73	=73	=73	=73	=73	=73	=73
4A\	7	4A\	8A/	.	8A/	.	2A\	de-	4r	.	8r	.	8r	.	8r	8r
.	.	.	4ee\	.	4gg\	.	.	.	.	.	(4g\	de-	(4ee\	de-	4ee\	4gg\
4r	.	4r	.	.	.	.	.	.	4A/	de-	.	.	.	.	.	.
.	.	.	4ff#\	.	4aa\	.	.	.	.	.	4a\)	.	4ff#\)	.	4ff#\	4aa\
4r	.	4r	.	.	.	.	4A\	-dit	4A/	-dit	.	.	.	.	.	.
.	.	.	8ee\	.	8gg\	.	.	.	.	.	8g\	-dit	8ee\	-dit	8ee\	8gg\
*	*	*	*	*	*	*	*	*Xij	*	*	*	*	*	*	*	*
!	!	!	!	!	!	!	!LO:LB:g=original	!	!	!	!	!	!	!	!	!
=74	=74	=74	=74	=74	=74	=74	=74	=74	=74	=74	=74	=74	=74	=74	=74	=74
4D\	.	4D\	4dd\	.	12ff#\L	.	4D\	ti-	4A/	ti-	4f#\	ti-	4dd\	ti-	4dd\	4ff#\
.	.	.	.	.	12ee\	.	.	.	.	.	.	.	.	.	.	.
.	.	.	.	.	12dd\J	.	.	.	.	.	.	.	.	.	.	.
4F#\	.	4F#\	4dd\	.	12ff#\L	.	4F#\	-men-	4A/	-men-	4f#\	-men-	4dd\	-men-	4dd\	4ff#\
.	.	.	.	.	12ee\	.	.	.	.	.	.	.	.	.	.	.
.	.	.	.	.	12dd\J	.	.	.	.	.	.	.	.	.	.	.
4A\	.	4A\	4e/	.	12ee\L	.	8A\	-ti-	8A/	-ti-	8f#\	-ti-	8cc#\	-ti-	4a/	4ee\
.	.	.	.	.	12dd\	.	.	.	.	.	.	.	.	.	.	.
.	.	.	.	.	.	.	8AA/	-bus-	8A/	-bus-	8e\	-bus-	8cc#\	-bus-	.	.
.	.	.	.	.	12cc#\J	.	.	.	.	.	.	.	.	.	.	.
!	!	!LO:LB:g=original	!LO:LB:g=original	!	!	!	!	!	!	!	!LO:LB:g=original	!	!	!	!	!
=75	=75	=75	=75	=75	=75	=75	=75	=75	=75	=75	=75	=75	=75	=75	=75	=75
4D\	.	4D\	8f#/	.	8dd\	.	4D/	-se	4A/	-se.	4f#\	-se	4dd\	-se	2dd\	2ff#\
.	.	.	8r	.	4b\	.	.	.	.	.	.	.	.	.	.	.
4r	.	4r	4r	.	.	.	4r	.	4r	.	4r	.	4r	.	.	.
!	!	!	!	!	!	!LO:DY:a:t=pia	!	!	!	!	!	!	!	!	!	!
.	.	.	.	.	8dd\L	p	.	.	.	.	.	.	.	.	.	.
4C#/	6\	4C#/	4r	.	8ff#\	.	4r	.	4r	.	4r	.	4r	.	4r	4r
.	.	.	.	.	8aa#X\J	.	.	.	.	.	.	.	.	.	.	.
=76	=76	=76	=76	=76	=76	=76	=76	=76	=76	=76	=76	=76	=76	=76	=76	=76
!	!	!	!	!	!	!	!	!	!LO:LB:g=original	!	!LO:N:vis=00	!	!LO:N:vis=00	!	!LO:N:vis=00	!LO:N:vis=00
4BB/	-	4BB/	2.r	.	4bb\	.	(4BB/	Me-	0.r	.	0.r	.	0.r	.	0.r	0.r
!LO:TX:a:i:t=Solo	!	!LO:TX:a:i:t=Solo	!	!	!	!	!	!	!	!	!	!	!	!	!	!
4r	.	4r	.	.	4r	.	4D/)	.	.	.	.	.	.	.	.	.
4F#\	#	4F#\	.	.	4r	.	4F#/	-mor	.	.	.	.	.	.	.	.
!LO:LB:g=original	!	!	!	!	!	!	!	!	!	!	!	!	!	!	!	!
=77	=77	=77	=77	=77	=77	=77	=77	=77	=77	=77	=77	=77	=77	=77	=77	=77
!	!	!	!	!LO:DY:b:t=pi	!	!	!	!	!	!	!	!	!	!	!	!
4BB/	.	4BB/	4f#/	p	4dd\	.	4B\	e-	.	.	.	.	.	.	.	.
4D/	.	4D/	4d/	.	4ff#\	.	4BB/	-rit	.	.	.	.	.	.	.	.
4BB/	.	4BB/	4f#/	.	4dd\	.	4B\	in	.	.	.	.	.	.	.	.
=78	=78	=78	=78	=78	=78	=78	=78	=78	=78	=78	=78	=78	=78	=78	=78	=78
4E\	-	4E\	4b\	.	4gg\	.	8B\L	sae-	.	.	.	.	.	.	.	.
.	.	.	.	.	.	.	16A#X\L	.	.	.	.	.	.	.	.	.
.	.	.	.	.	.	.	16B\JJ	.	.	.	.	.	.	.	.	.
4E\	6	4E\	4b\	.	4gg\	.	4c#\	-cu-	.	.	.	.	.	.	.	.
4E#X\	5	4E#X\	4b\	.	4gg#X\	.	4B\	-lum	.	.	.	.	.	.	.	.
!	!	!	!	!	!LO:LB:g=original	!	!	!	!	!	!	!	!	!	!	!
=79	=79	=79	=79	=79	=79	=79	=79	=79	=79	=79	=79	=79	=79	=79	=79	=79
4F#\	.	4F#\	4a#X/	.	4cc#\	.	4A#X\	sae-	.	.	.	.	.	.	.	.
4F#\	.	4F#\	4a#/	.	4cc#\	.	4F#\	-cu-	.	.	.	.	.	.	.	.
4F#\	.	4F#\	4f#/	.	4cc#\	.	4F#\	-li	.	.	.	.	.	.	.	.
=80	=80	=80	=80	=80	=80	=80	=80	=80	=80	=80	=80	=80	=80	=80	=80	=80
!LO:TX:a:t=|	!	!	!LO:TX:b:t=|	!	!LO:TX:b:t=|	!	!	!	!LO:N:vis=00	!	!LO:N:vis=00	!	!LO:N:vis=00	!	!LO:N:vis=00	!LO:N:vis=00
4Gn\	.	4Gn\	4gn/	.	4g/	.	(4G\	tes-	0.r	.	0.r	.	0.r	.	0.r	0.r
!LO:TX:a:t=|	!	!	!LO:TX:b:t=|	!	!LO:TX:b:t=|	!	!	!	!	!	!	!	!	!	!	!
4F#\	.	4F#\	4f#/	.	4f#/	.	4F#\)	-ta-	.	.	.	.	.	.	.	.
!LO:TX:a:t=|	!	!	!LO:TX:b:t=|	!	!LO:TX:b:t=|	!	!LO:TX:t=P:problem:min. dwie sylaby na jedną nutę	!	!	!	!	!	!	!	!	!
4E#X\	.	4E#X\	4e#X/	.	4e#X/	.	4E#X\	-menti	.	.	.	.	.	.	.	.
!	!	!	!	!	!	!	!LO:LB:g=original	!	!	!	!	!	!	!	!	!
=81	=81	=81	=81	=81	=81	=81	=81	=81	=81	=81	=81	=81	=81	=81	=81	=81
!LO:TX:t=P:problem:mixed beam	!	!LO:TX:t=P:problem:mixed beam	!	!	!	!	!	!	!	!	!	!	!	!	!	!
8F#\L	.	8F#\L	8f#/L	.	8f#/L	.	8F#\L	su-	.	.	.	.	.	.	.	.
8BB/J	.	8BB\/	8b/J	.	8b/J	.	8B\J	.	.	.	.	.	.	.	.	.
4F#\	6 4	4F#\	4f#/	.	4f#/	.	2F#\	.	.	.	.	.	.	.	.	.
4FF#/	#	4FF#/	4f#/	.	4f#/	.	.	.	.	.	.	.	.	.	.	.
=82	=82	=82	=82	=82	=82	=82	=82	=82	=82	=82	=82	=82	=82	=82	=82	=82
4BB/	.	4BB/	4B/	.	4B/	.	4BB/	-i	.	.	.	.	.	.	.	.
4r	.	4r	4r	.	4r	.	4B\	vir-	.	.	.	.	.	.	.	.
!	!	!LO:LB:g=original	!	!	!	!	!	!	!	!	!	!	!	!	!	!
4C#X/	656	4C#X/	4r	.	4r	.	8A\	-tu-	.	.	.	.	.	.	.	.
.	.	.	.	.	.	.	8G\	-tem	.	.	.	.	.	.	.	.
=83	=83	=83	=83	=83	=83	=83	=83	=83	=83	=83	=83	=83	=83	=83	=83	=83
!	!	!	!LO:N:vis=0	!	!	!	!	!	!	!	!	!	!	!	!	!
4.D\	.	4.D\	1.r	.	2.r	.	4.F#\	o-	.	.	.	.	.	.	.	.
8E\L	.	8E\L	.	.	.	.	8E\	-pe-	.	.	.	.	.	.	.	.
8F#\	.	8F#\	.	.	.	.	8D/	-rum	.	.	.	.	.	.	.	.
8D\J	.	8D\J	.	.	.	.	8F#\	su-	.	.	.	.	.	.	.	.
=84	=84	=84	=84	=84	=84	=84	=84	=84	=84	=84	=84	=84	=84	=84	=84	=84
4AA/	.	4AA/	.	.	4r	.	4A\	-o-	2.r	.	2.r	.	4r	.	2.r	2.r
4AA/	.	4AA/	.	.	8a\L	.	4A\	-rum	.	.	.	.	4a\	a-	.	.
.	.	.	.	.	8a\	.	.	.	.	.	.	.	.	.	.	.
4r	.	4r	.	.	8b\	.	4r	.	.	.	.	.	8b\	-nun-	.	.
.	.	.	.	.	8cc#\J	.	.	.	.	.	.	.	8cc#\	-ti-	.	.
!LO:LB:g=original	!	!	!LO:LB:g=original	!	!	!	!	!	!LO:LB:g=original	!	!	!	!	!	!LO:LB:g=original	!
=85	=85	=85	=85	=85	=85	=85	=85	=85	=85	=85	=85	=85	=85	=85	=85	=85
8r	.	8r	8r	.	2dd\	.	8r	.	8r	.	8r	.	2dd\	-a-	8r	8r
!LO:TX:a:i:t=Tutti	!	!LO:TX:a:i:t=T&colon;	!	!	!	!	!	!	!	!	!	!	!	!	!	!
8E\L	.	8E\L	8g#X/L	.	.	.	8E\	a-	8B\	a-	8g#X\	a-	.	.	8ee\L	8ee\L
8E\	#	8E\	8g#/	.	.	.	8E\	-nun-	8B\	-nun-	8g#\	-nun-	.	.	8ee\	8ee\
8E\	7	8E\	8g#/	.	.	.	8E\	-ti-	8B\	-ti-	8g#\	-ti-	.	.	8ee\	8ee\
8E\	.	8E\	8g#/	.	4dd\	.	8E\	-a-	8B\	-a-	8g#\	-a-	4dd\	-bit	8ee\	8ee\
8E\J	.	8E\J	8g#/J	.	.	.	8E\	-bit	8B\	-bit	8g#\	-bit	.	.	8ee\J	8ee\J
=86	=86	=86	=86	=86	=86	=86	=86	=86	=86	=86	=86	=86	=86	=86	=86	=86
4AA/	.	4AA/	4e/	.	4aa\	.	4.AA/	po-	4.c#\	po-	4a\	po-	4.cc#\	po-	4ee\	4aa\
4BB/	6\	4BB/	4d/	.	4gg#X\	.	.	.	.	.	4g\	-pu-	.	.	4dd\	4aa\
.	.	.	.	.	.	.	8BB/	-pu-	8d\	-pu-	.	.	8b\	-pu-	.	.
4C#/	.	4C#/	4e/	.	4aa\	.	4C#/	-lo	4e\	-lo	4a\	-lo	4a\	-lo	4ee\	4gg#X\
!	!	!	!	!	!LO:LB:g=original	!	!LO:LB:g=original	!	!	!	!	!	!LO:LB:g=original	!	!	!
=87	=87	=87	=87	=87	=87	=87	=87	=87	=87	=87	=87	=87	=87	=87	=87	=87
4D\	.	4D\	4f#/	.	4bb\	.	4D/	su-	2A/	su-	(4f#\	su-	2.bM\	su-	4ff#\	4bb\
4E\	6 4	4E\	2e/	.	2gg#X\	.	4E/	.	.	.	2e\)	.	.	.	2ee\	2gg#X\
4EE/	5 #	4EE/	.	.	.	.	4EE/	.	4G#X/	.	.	.	.	.	.	.
=88	=88	=88	=88	=88	=88	=88	=88	=88	=88	=88	=88	=88	=88	=88	=88	=88
!LO:TX:a:i:t=Solo	!	!LO:TX:a:i:t=Solo	!	!	!	!	!	!	!	!	!	!	!	!	!	!
4AA/	.	4AA/	4e/	.	8A/	.	4AA/	-o	4A/	-o	4e\	-o	4a\	-o	4ee\	4aa\
.	.	.	.	.	4c#/	.	.	.	.	.	.	.	.	.	.	.
4r	.	4r	8r	.	.	.	4r	.	4r	.	4r	.	4r	.	4r	4r
.	.	.	8c#/L	.	8e/L	.	.	.	.	.	.	.	.	.	.	.
4E\	#	4E\	8d/	.	8f#/	.	4r	.	4r	.	4r	.	4r	.	4r	4r
.	.	.	8B/J	.	8g#X/J	.	.	.	.	.	.	.	.	.	.	.
=89	=89	=89	=89	=89	=89	=89	=89	=89	=89	=89	=89	=89	=89	=89	=89	=89
!	!	!	!	!	!	!LO:DY:a:t=pia.	!LO:N:vis=00	!	!LO:N:vis=00	!	!LO:N:vis=00	!	!LO:TX:a:i:t=Solo	!	!LO:N:vis=0	!LO:N:vis=0
8A\L	5	8A\L	8c#/L	.	8a\L	p	0.r	.	0.r	.	0.r	.	4cc#\	ut	1.r	1.r
8A\	.	8A\J	8e/	.	8cc#\	.	.	.	.	.	.	.	.	.	.	.
8A\	.	8A\L	8e/	.	8cc#\	.	.	.	.	.	.	.	8cc#\L	det	.	.
8A\	.	8A\	8e/	.	8b\	.	.	.	.	.	.	.	8b\	.	.	.
8A\	.	8A\	8e/	.	8cc#\	.	.	.	.	.	.	.	8cc#\	.	.	.
8E\J	#	8E\J	8e/J	.	8b\J	.	.	.	.	.	.	.	8b\J	.	.	.
=90	=90	=90	=90	=90	=90	=90	=90	=90	=90	=90	=90	=90	=90	=90	=90	=90
8F#\L	.	8F#\L	8c#/L	.	8a\L	.	.	.	.	.	.	.	4a\	il-	.	.
8F#\	.	8F#\	8a/	.	8cc#\	.	.	.	.	.	.	.	.	.	.	.
8F#\	3	8F#\	8a/	.	8cc#\	.	.	.	.	.	.	.	8a\	-lis	.	.
8C#\	6	8C#\	8a/	.	8ee\	.	.	.	.	.	.	.	8ee\	hae-	.	.
8D\	.	8D\	8a/	.	8ff#\	.	.	.	.	.	.	.	8ff#\	-re-	.	.
8C#\J	.	8C#\J	8a/J	.	8ee\J	.	.	.	.	.	.	.	8ee\	-di-	.	.
=91	=91	=91	=91	=91	=91	=91	=91	=91	=91	=91	=91	=91	=91	=91	=91	=91
!LO:TX:t=P:problem:mixed beam	!	!LO:TX:t=P:problem:mixed beam	!	!	!	!	!	!	!	!	!	!	!	!	!	!
8BB/L	.	8BB/L	8a\L	.	8dd\L	.	.	.	.	.	.	.	8dd\L	-ta-	2.r	2.r
8B\	.	8B\	8a\	.	8dd\	.	.	.	.	.	.	.	16ee\L	.	.	.
.	.	.	.	.	.	.	.	.	.	.	.	.	16ff#\JJ	.	.	.
8G#X\	.	8G#X\	8b\	.	8dd\	.	.	.	.	.	.	.	4ee\	.	.	.
8G#\	6	8G#\	8b\	.	8dd\	.	.	.	.	.	.	.	.	.	.	.
8G#\	.	8G#\	8b\	.	8dd\	.	.	.	.	.	.	.	4dd\	-tem	.	.
8G#\J	.	8G#\J	8b\J	.	8dd\J	.	.	.	.	.	.	.	.	.	.	.
!LO:PB:g=original	!	!	!LO:LB:g=original	!	!	!	!	!	!	!	!	!	!	!	!	!
=92	=92	=92	=92	=92	=92	=92	=92	=92	=92	=92	=92	=92	=92	=92	=92	=92
8A\L	.	8A\L	8e/	.	8cc#\	.	.	.	.	.	.	.	8cc#\	gen-	8a/L	8a/L
8A\	.	8A\	4aa\	.	4aa\	.	.	.	.	.	.	.	8b\	-ti-	8a/	8a/
8A\	-	8A\	.	.	.	.	.	.	.	.	.	.	4a\	-um	8a/	8a/
8A\	.	8A\	4ee\	.	4ee\	.	.	.	.	.	.	.	.	.	8a/	8a/
8A\	.	8A\	.	.	.	.	.	.	.	.	.	.	4r	.	8a/	8a/
8A\J	.	8A\J	8ccn\	.	8ccn\	.	.	.	.	.	.	.	.	.	8a/J	8a/J
!	!	!	!	!	!LO:LB:g=original	!	!	!	!	!	!LO:LB:g=original	!	!LO:LB:g=original	!	!	!
=93	=93	=93	=93	=93	=93	=93	=93	=93	=93	=93	=93	=93	=93	=93	=93	=93
!LO:TX:a:i:t=Tutti	!	!LO:TX:a:i:t=Tu&colon;	!	!	!	!	!	!	!	!	!	!	!	!	!	!
8A\L	.	8A\L	8ccn\L	.	8ff#\L	.	8.D#X/	o-	4A/	o-	4f#\	o-	4ccn\	o-	8ff#\L	8ff#\L
8D#X\	.	8D#X\	8cc\	.	8ff#\	.	.	.	.	.	.	.	.	.	8ff#\	8ff#\
.	.	.	.	.	.	.	16D#/	-pe-	.	.	.	.	.	.	.	.
8D#\	-	8D#\	8cc\	.	8ff#\	.	8D#/	-ra	8A/	-pe-	8f#\	-pe-	8cc\	-pe-	8ff#\	8ff#\
8D#\	7	8D#\	8cc\	.	8ff#\	.	8D#/	ma-	8A/	-ra	8f#\	-ra	8cc\	-ra	8ff#\	8ff#\
8D#\	.	8D#\	8cc\	.	8ff#\	.	8D#/	-nu-	8A/	ma-	8f#\	ma-	8cc\	ma-	8ff#\	8ff#\
8D#\J	.	8D#\J	8a\J	.	8ff#\J	.	8D#/	-um	16A/	-nu-	16f#\	-nu-	16cc\	-nu-	8ff#\J	8ff#\J
.	.	.	.	.	.	.	.	.	16A/	-um	16f#\	-um	16cc\	-um	.	.
!	!	!	!	!	!	!	!	!	!LO:LB:g=original	!	!	!	!	!	!	!
=94	=94	=94	=94	=94	=94	=94	=94	=94	=94	=94	=94	=94	=94	=94	=94	=94
4E\	#	4E\	8g#X/L	.	8ee\L	.	(4E\	e-	4G#X/	e-	4g#X\	e-	2b\	e-	4ee\	4ee\
.	.	.	8g#/	.	8ee\	.	.	.	.	.	.	.	.	.	.	.
4F#\	6\	4F#\	8a/	.	8dd#X\	.	4F#\)	.	4A\	.	4f#\	-jus	.	.	4r	4r
.	.	.	8a/	.	8dd#\	.	.	.	.	.	.	.	.	.	.	.
4G#X\	656	4G#X\	8b/	.	8ee\	.	4G#X\	-jus	4B\	-jus	8e\L	ve-	4ee\	-jus	4r	4r
.	.	.	8b/J	.	8ddn\J	.	.	.	.	.	8a\J	.	.	.	.	.
!	!	!LO:LB:g=original	!	!	!	!	!	!	!	!	!	!	!	!	!LO:LB:g=original	!
=95	=95	=95	=95	=95	=95	=95	=95	=95	=95	=95	=95	=95	=95	=95	=95	=95
4A\	.	4A\	4cc#\	.	8cc#\L	.	4A\	ve-	4c#\	ve-	4a\	-ri-	4cc#\	ve-	4ee\	4aa\
.	.	.	.	.	8aa\	.	.	.	.	.	.	.	.	.	.	.
4B\	.	4B\	4dd\	.	8dd\	.	8B\	-ri-	8B\	-ri-	8g#X\	.	8dd\	-ri-	4dd\	4gg#X\
.	.	.	.	.	8aa\	.	8B\	-tas	8B\	-tas	8g#\	-tas	8dd\	-tas	.	.
4c#\	.	4c#\	4ee\	.	8ee\	.	4c#\	et	4A\	et	4a\	et	4ee\	et	4ee\	4aa\
.	.	.	.	.	8aa\J	.	.	.	.	.	.	.	.	.	.	.
!	!	!	!	!	!	!	!LO:LB:g=original	!	!	!	!	!	!	!	!	!
=96	=96	=96	=96	=96	=96	=96	=96	=96	=96	=96	=96	=96	=96	=96	=96	=96
4d\	.	4d\	4ff#\	.	4bb\	.	4d\	ju-	4d\	ju-	4b\	ju-	8ff#\L	ju-	4ff#\	4bb\
.	.	.	.	.	.	.	.	.	.	.	.	.	8b\J	.	.	.
4e\	#	4e\	4.b/	.	4.gg#X\	.	4e\	-di-	4.B\	-di-	4.g#X\	-di-	4.b\	-di-	4ee\	4gg#X\
4E\	.	4E\	.	.	.	.	4E\	-ci-	.	.	.	.	.	.	4ee\	4aa\
.	.	.	8b/	.	8aa\	.	.	.	8B\	-ci-	8a\	-ci-	8a\	-ci-	.	.
!	!	!	!	!	!	!	!	!	!	!	!	!	!	!	!	!LO:LB:g=original
=97	=97	=97	=97	=97	=97	=97	=97	=97	=97	=97	=97	=97	=97	=97	=97	=97
4A\	.	4A\	4cc#\	.	4aa\	.	4A\	-um	4c#\	-um	4a\	-um	4a\	-um	4a/	4aa\
!	!	!	!	!	!	!	!	!	!	!	!LO:TX:a:i:t=Solo	!	!	!	!	!
4r	.	4r	4c#/	.	4a/	.	4r	.	4r	.	4r	.	4r	.	4r	4r
4E#X\	6	4E#X\	4r	.	4r	.	4r	.	4r	.	4cc#\	Fi-	4r	.	4r	4r
!	!	!	!	!	!	!	!	!	!	!	!LO:LB:g=original	!	!	!	!	!
=98	=98	=98	=98	=98	=98	=98	=98	=98	=98	=98	=98	=98	=98	=98	=98	=98
!LO:TX:a:t=Solo	!	!LO:TX:a:t=Solo	!LO:TX:a:t=9	!	!	!	!LO:N:vis=00	!	!LO:N:vis=00	!	!	!	!LO:N:vis=00	!	!	!
!	!	!	!LO:N:vis=00	!	!	!	!	!	!	!	!	!	!	!	!LO:N:vis=00	!LO:N:vis=00
4F#\	.	4F#\	0.r	.	2.r	.	0.r	.	0.r	.	4.a\	-de-	0.r	.	0.r	0.r
4G\	.	4G\	.	.	.	.	.	.	.	.	.	.	.	.	.	.
.	.	.	.	.	.	.	.	.	.	.	8a\	-li-	.	.	.	.
4G#X\	6\	4G#X\	.	.	.	.	.	.	.	.	4g#X\	-a	.	.	.	.
=99	=99	=99	=99	=99	=99	=99	=99	=99	=99	=99	=99	=99	=99	=99	=99	=99
4A\	.	4A\	.	.	8f#/	.	.	.	.	.	4.f#\	om-	.	.	.	.
.	.	.	.	.	4a/	.	.	.	.	.	.	.	.	.	.	.
4A\	6	4A\	.	.	.	.	.	.	.	.	.	.	.	.	.	.
.	.	.	.	.	4cc#\	.	.	.	.	.	8f#\	-ni-	.	.	.	.
4A\	.	4A\	.	.	.	.	.	.	.	.	4f#\	-a	.	.	.	.
.	.	.	.	.	8ff#\	.	.	.	.	.	.	.	.	.	.	.
!LO:LB:g=original	!	!	!	!	!LO:LB:g=original	!	!	!	!	!	!	!	!	!	!	!
=100	=100	=100	=100	=100	=100	=100	=100	=100	=100	=100	=100	=100	=100	=100	=100	=100
!	!	!	!	!	!LO:TX:a:t=1	!	!	!	!	!	!	!	!	!	!	!
4F#\	.	4F#\	.	.	2.r	.	.	.	.	.	4a\	man-	.	.	.	.
4B\	.	4B\	.	.	.	.	.	.	.	.	4g#X\	-da-	.	.	.	.
4B#X\	6	4B#X\	.	.	.	.	.	.	.	.	8e\L	-ta	.	.	.	.
.	.	.	.	.	.	.	.	.	.	.	8f#\J	.	.	.	.	.
=101	=101	=101	=101	=101	=101	=101	=101	=101	=101	=101	=101	=101	=101	=101	=101	=101
4c#\	#	4c#\	.	.	8r	.	.	.	.	.	4e#X\	e-	.	.	.	.
.	.	.	.	.	4c#/	.	.	.	.	.	.	.	.	.	.	.
4C#/	.	4C#/	.	.	.	.	.	.	.	.	4c#\	-jus	.	.	.	.
.	.	.	.	.	4e#X/	.	.	.	.	.	.	.	.	.	.	.
4r	.	4r	.	.	.	.	.	.	.	.	4r	.	.	.	.	.
.	.	.	.	.	8g#X/	.	.	.	.	.	.	.	.	.	.	.
=102	=102	=102	=102	=102	=102	=102	=102	=102	=102	=102	=102	=102	=102	=102	=102	=102
!	!	!	!LO:N:vis=00	!	!	!	!LO:N:vis=00	!	!LO:N:vis=00	!	!	!	!LO:N:vis=00	!	!LO:N:vis=00	!
4r	.	4r	0.r	.	4cc#\	.	0.r	.	0.r	.	4r	.	0.r	.	0.r	0.r
4C#/	#	4C#/	.	.	4r	.	.	.	.	.	4g#X\	con-	.	.	.	.
4E#X\	6	4E#X\	.	.	4r	.	.	.	.	.	4g#\	-fir-	.	.	.	.
!	!	!LO:LB:g=original	!	!	!	!	!	!	!	!	!	!	!	!	!	!
=103	=103	=103	=103	=103	=103	=103	=103	=103	=103	=103	=103	=103	=103	=103	=103	=103
4F#\	-	4F#\	.	.	2.r	.	.	.	.	.	4a\	-ma-	.	.	.	.
4G\	.	4G\	.	.	.	.	.	.	.	.	4g\	-ta	.	.	.	.
4A\	.	4A\	.	.	.	.	.	.	.	.	4f#\	in	.	.	.	.
=104	=104	=104	=104	=104	=104	=104	=104	=104	=104	=104	=104	=104	=104	=104	=104	=104
4E#X\	5	4E#X\	.	.	8r	.	.	.	.	.	4.b\	sae-	.	.	.	.
.	.	.	.	.	4gg#X\	.	.	.	.	.	.	.	.	.	.	.
4E#\	-	4E#\	.	.	.	.	.	.	.	.	.	.	.	.	.	.
.	.	.	.	.	4cc#\	.	.	.	.	.	8b\	-cu-	.	.	.	.
4E#\	.	4E#\	.	.	.	.	.	.	.	.	4b\	-lum	.	.	.	.
.	.	.	.	.	8gg#\	.	.	.	.	.	.	.	.	.	.	.
!	!	!	!	!	!	!	!	!	!	!	!LO:LB:g=original	!	!	!	!	!
=105	=105	=105	=105	=105	=105	=105	=105	=105	=105	=105	=105	=105	=105	=105	=105	=105
8F#\L	.	8F#\L	.	.	4ff#\	.	.	.	.	.	8a\L	sae-	.	.	.	.
8B\J	-	8B\J	.	.	.	.	.	.	.	.	8g\J	.	.	.	.	.
4c#\	#	4c#\	.	.	4r	.	.	.	.	.	4a\	.	.	.	.	.
4C#/	.	4C#/	.	.	4r	.	.	.	.	.	8g\L	-cu-	.	.	.	.
.	.	.	.	.	.	.	.	.	.	.	8f#\J	.	.	.	.	.
=106	=106	=106	=106	=106	=106	=106	=106	=106	=106	=106	=106	=106	=106	=106	=106	=106
!	!	!	!	!	!	!	!	!	!	!	!	!	!	!	!LO:N:vis=00	!
4F#\	.	4F#\	2.r	.	8r	.	2.r	.	2.r	.	4f#\	-li	4r	.	0.r	0.r
.	.	.	.	.	8dd\L	.	.	.	.	.	.	.	.	.	.	.
4r	.	4r	.	.	8dd\	.	.	.	.	.	4r	.	4dd\	fac-	.	.
.	.	.	.	.	8dd\	.	.	.	.	.	.	.	.	.	.	.
4r	.	4r	.	.	8dd\	.	.	.	.	.	4r	.	8dd\	-ta	.	.
.	.	.	.	.	8dd\J	.	.	.	.	.	.	.	8dd\	in	.	.
!	!	!	!LO:LB:g=original	!	!	!	!	!	!	!	!	!	!	!	!	!
=107	=107	=107	=107	=107	=107	=107	=107	=107	=107	=107	=107	=107	=107	=107	=107	=107
8r	.	8r	8r	.	8r	.	8r	.	8r	.	8r	.	2dd\	ve-	.	.
8E#X\L	-	8E#X\L	8dd\L	.	8gg#X\L	.	8E#X\	fac-	8B\	fac-	8g#X\	fac-	.	.	.	.
8E#\	7	8E#\	8dd\	.	8gg#\	.	8E#\	-ta	8B\	-ta	8g#\	-ta	.	.	.	.
8E#\	.	8E#\	8dd\	.	8gg#\	.	8E#\	in	8B\	in	8g#\	in	.	.	.	.
8E#\	.	8E#\	8dd\	.	8gg#\	.	8E#\	ve-	8B\	ve-	8g#\	ve-	4dd\	-ri-	.	.
8E#\J	.	8E#\J	8dd\J	.	8gg#\J	.	8E#\	-ri-	8B\	-ri-	8g#\	-ri-	.	.	.	.
!LO:LB:g=original	!	!	!	!	!LO:LB:g=original	!	!	!	!LO:LB:g=original	!	!	!	!	!	!	!
=108	=108	=108	=108	=108	=108	=108	=108	=108	=108	=108	=108	=108	=108	=108	=108	=108
4F#\	-	4F#\	4cc#\	.	4aa\	.	4F#\	-ta-	4A\	-ta-	4a\	-ta-	4cc#\	-ta-	.	.
8F#\L	.	8F#\L	8cc#\L	.	8aa\L	.	8F#\	-te	8c#\	-te	8a\	-te	8cc#\	-te	.	.
8G\J	.	8G\J	8b\J	.	8bb\J	.	8G#X\	et	8e#X\	et	8g\	et	8b\	et	.	.
4A\	6	4A\	4a/	.	4ccc#\	.	4A\	ae-	4f#\	ae-	4f#\	ae-	4a\	ae-	.	.
=109	=109	=109	=109	=109	=109	=109	=109	=109	=109	=109	=109	=109	=109	=109	=109	=109
4B\	6	4B\	4g#X/	.	4ddd\	.	4B\	-qui-	4d\	-qui-	4f#\	-qui-	4g#X\	-qui-	.	.
4c#\	6 4	4c#\	4a/	.	4ff#\	.	(4c#\	-ta-	2c#\	-ta-	(4f#\	-ta-	4a\	.	.	.
4C#/	#	4C#/	8g#/L	.	4ee#Xm\	.	4C#/)	.	.	.	4e#X\)	.	8g#/L	ta-	.	.
.	.	.	8f#/J	.	.	.	.	.	.	.	.	.	8f#/J	.	.	.
!	!	!LO:LB:g=original	!	!	!	!	!LO:LB:g=original	!	!	!	!	!	!	!	!	!
=110	=110	=110	=110	=110	=110	=110	=110	=110	=110	=110	=110	=110	=110	=110	=110	=110
!	!	!	!	!	!	!	!	!	!	!	!	!	!	!	!LO:N:vis=00	!LO:N:vis=00
8F#\L	-	8F#\L	8f#/	.	8ff#\	.	4F#\	-te.	4c#\	-te.	4f#\	-te	4f#/	-te.	0.r	0.r
8E#X\	-	8E#X\	4b/	.	4dd\	.	.	.	.	.	.	.	.	.	.	.
8E#\	7	8E#\	.	.	.	.	4r	.	4r	.	4r	.	4r	.	.	.
(8E#\	.	8E#\	4b/	.	4dd\	.	.	.	.	.	.	.	.	.	.	.
8E#\	.	8E#\	.	.	.	.	4r	.	4r	.	4r	.	4r	.	.	.
8E#\J)	.	8E#\J	8b/	.	[8dd\	.	.	.	.	.	.	.	.	.	.	.
=111	=111	=111	=111	=111	=111	=111	=111	=111	=111	=111	=111	=111	=111	=111	=111	=111
!	!	!	!	!	!	!	!	!	!	!	!LO:TX:a:t=3	!	!LO:N:vis=0	!	!	!
!	!	!	!	!	!	!	!	!	!LO:N:vis=0	!	!LO:N:vis=0	!	!	!	!	!
4F#\	4 95	4F#\	8b/L	.	12dd\L]	.	2.ryy	.	1.r	.	1.r	.	1.r	.	.	.
.	.	.	.	.	12cc#\	.	.	.	.	.	.	.	.	.	.	.
.	.	.	16a/L	.	.	.	.	.	.	.	.	.	.	.	.	.
.	.	.	.	.	12b\J	.	.	.	.	.	.	.	.	.	.	.
.	.	.	16g#X/JJ	.	.	.	.	.	.	.	.	.	.	.	.	.
4r	.	4r	4a/	.	4cc#\	.	.	.	.	.	.	.	.	.	.	.
4G#X\	6\	4G#X\	4g#/	.	4b/	.	.	.	.	.	.	.	.	.	.	.
=112	=112	=112	=112	=112	=112	=112	=112	=112	=112	=112	=112	=112	=112	=112	=112	=112
8A\L	6	8A\L	4f#/	.	8a/L	.	2.ryy	.	.	.	.	.	.	.	.	.
8B\J	.	8B\J	.	.	8g#X/J	.	.	.	.	.	.	.	.	.	.	.
4c#\	.	4c#\	4f#/	.	4a/	.	.	.	.	.	.	.	.	.	.	.
4C#/	#	4C#/	4e#X/	.	8g#/L	.	.	.	.	.	.	.	.	.	.	.
.	.	.	.	.	8f#/J	.	.	.	.	.	.	.	.	.	.	.
=113	=113	=113	=113	=113	=113	=113	=113	=113	=113	=113	=113	=113	=113	=113	=113	=113
!LO:N:vis=1	!	!LO:N:vis=1	!	!	!	!	!	!	!	!	!	!	!	!	!	!
2.F#	.	2.F#	2.f#/	.	2.f#/	.	2.ryy	.	2.r	.	2.r	.	2.r	.	.	.
!LO:LB:g=original	!	!LO:PB:g=original	!LO:PB:g=original	!	!LO:LB:g=original	!	!	!	!	!	!LO:LB:g=original	!	!LO:LB:g=original	!	!	!
=114||	=114||	=114||	=114||	=114||	=114||	=114||	=114||	=114||	=114||	=114||	=114||	=114||	=114||	=114||	=114||	=114||
*k[f#c#g#]	*	*k[f#c#g#]	*k[f#c#g#]	*	*k[f#c#g#]	*	*k[f#c#g#]	*	*k[f#c#g#]	*	*k[f#c#g#]	*	*k[f#c#g#]	*	*k[f#c#g#]	*k[f#c#g#]
*M4/4	*	*M4/4	*M4/4	*	*M4/4	*	*M4/4	*	*M4/4	*	*M4/4	*	*M4/4	*	*M4/4	*M4/4
*met(c)	*	*met(c)	*met(c)	*	*met(c)	*	*met(c)	*	*met(c)	*	*met(c)	*	*met(c)	*	*met(c)	*met(c)
!LO:TX:t=P:problem:cztery znaki przykluczowe?	!	!	!LO:TX:b:i:t=Redemption(em)	!	!LO:TX:b:i:t=Redemptionem	!	!	!	!	!	!	!	!	!	!	!LO:TX:a:t=Redemptionem et Gloria Tacet
!LO:TX:a:i:t=Adagio Solo	!	!LO:TX:a:i:t=adagio Solo	!LO:TX:a:i:t=Solo dolce	!	!LO:TX:a:Bi:t=Adagio	!	!LO:TX:a:t=Redemptionem\net Gloria Tacet	!	!LO:TX:a:t=Redemptionem\nGloria Tacet	!	!	!	!LO:TX:a:B:t=Largo	!	!LO:TX:a:t=Redemptionem et Gloria \nTacet	!LO:TX:a:B:t=Adagio
8A\L	.	8A\L	4a/	.	4cc#\	.	1ryy	.	1ryy	.	00r	.	00r	.	1ryy	1ryy
8A\	.	8A\	.	.	.	.	.	.	.	.	.	.	.	.	.	.
8A\	.	8A\	4b/	.	4dd\	.	.	.	.	.	.	.	.	.	.	.
8A\J	.	8A\J	.	.	.	.	.	.	.	.	.	.	.	.	.	.
8A\L	.	8A\L	8a\L	.	16cc#\LL	.	.	.	.	.	.	.	.	.	.	.
.	.	.	.	.	16dd\J	.	.	.	.	.	.	.	.	.	.	.
8A\	.	8A\	16b\L	.	8ee\J	.	.	.	.	.	.	.	.	.	.	.
.	.	.	16cc#\JJ	.	.	.	.	.	.	.	.	.	.	.	.	.
8A\	.	8A\	4r	.	4r	.	.	.	.	.	.	.	.	.	.	.
8A\J	.	8A\J	.	.	.	.	.	.	.	.	.	.	.	.	.	.
=115	=115	=115	=115	=115	=115	=115	=115	=115	=115	=115	=115	=115	=115	=115	=115	=115
8E\L	.	8E\L	4g#/	.	4b\	.	1ryy	.	1ryy	.	.	.	.	.	1ryy	1ryy
8E\	.	8E\	.	.	.	.	.	.	.	.	.	.	.	.	.	.
8E\	6 4	8E\	4a/	.	4cc#\	.	.	.	.	.	.	.	.	.	.	.
8E\J	.	8E\J	.	.	.	.	.	.	.	.	.	.	.	.	.	.
8E\L	3	8E\L	16g#/LL	.	16b\LL	.	.	.	.	.	.	.	.	.	.	.
.	.	.	16a/J	.	16cc#\J	.	.	.	.	.	.	.	.	.	.	.
8E\	.	8E\	8b/J	.	8dd\J	.	.	.	.	.	.	.	.	.	.	.
8E\	7	8E\	8r	.	8r	.	.	.	.	.	.	.	.	.	.	.
8E\J	.	8E\J	8b\	.	8dd\	.	.	.	.	.	.	.	.	.	.	.
=116	=116	=116	=116	=116	=116	=116	=116	=116	=116	=116	=116	=116	=116	=116	=116	=116
8A\L	.	8A\L	8a\L	.	8cc#\L	.	1ryy	.	1ryy	.	.	.	.	.	1ryy	1ryy
8A\	.	8A\	8cc#\	.	8ee\	.	.	.	.	.	.	.	.	.	.	.
8D\	8 6	8D\	8b\	.	8dd\	.	.	.	.	.	.	.	.	.	.	.
8D\J	7 5	8D\J	8a\J	.	8cc#\J	.	.	.	.	.	.	.	.	.	.	.
8E\L	6 4	8E\L	8a/L	.	8cc#\L	.	.	.	.	.	.	.	.	.	.	.
8E\	.	8E\	8g#/J	.	8b\J	.	.	.	.	.	.	.	.	.	.	.
8E\	#	8E\	8r	.	8r	.	.	.	.	.	.	.	.	.	.	.
8A\J	.	8A\J	8cc#\	.	8aa\	.	.	.	.	.	.	.	.	.	.	.
!	!	!LO:LB:g=original	!	!	!	!	!	!	!	!	!	!	!	!	!	!
=117	=117	=117	=117	=117	=117	=117	=117	=117	=117	=117	=117	=117	=117	=117	=117	=117
4E\	.	4E\	8b/L	.	8gg#\L	.	1ryy	.	1ryy	.	.	.	.	.	1ryy	1ryy
.	.	.	8a/	.	8ff#\	.	.	.	.	.	.	.	.	.	.	.
8r	.	8r	8g#/	.	8ee\	.	.	.	.	.	.	.	.	.	.	.
8E\	.	8E\	8g#/J	.	8dd\J	.	.	.	.	.	.	.	.	.	.	.
!	!	!	!	!	!LO:LB:g=original	!	!	!	!	!	!	!	!	!	!	!
8A\L	.	8A\L	8a/L	.	16cc#\LL	.	.	.	.	.	.	.	.	.	.	.
.	.	.	.	.	16b\J	.	.	.	.	.	.	.	.	.	.	.
8A\	.	8A\	8a/J	.	8a\J	.	.	.	.	.	.	.	.	.	.	.
!	!	!	!LO:LB:g=original	!	!	!	!	!	!	!	!	!	!	!	!	!
8A\	.	8A\	8r	.	8r	.	.	.	.	.	.	.	.	.	.	.
8A\J	.	8A\J	8cc#\	.	8aa\	.	.	.	.	.	.	.	.	.	.	.
!LO:LB:g=original	!	!	!	!	!	!	!	!	!	!	!	!	!	!	!	!
=118	=118	=118	=118	=118	=118	=118	=118	=118	=118	=118	=118	=118	=118	=118	=118	=118
4E\	.	4E\	8b/L	.	8gg#\L	.	1ryy	.	1ryy	.	1r	.	1r	.	1ryy	1ryy
.	.	.	8a/	.	8ff#\	.	.	.	.	.	.	.	.	.	.	.
8r	.	8r	8g#/	.	8ee\	.	.	.	.	.	.	.	.	.	.	.
8E\	.	8E\	8g#/J	.	8dd\J	.	.	.	.	.	.	.	.	.	.	.
8A\L	.	8A\L	8a/L	.	16cc#\LL	.	.	.	.	.	.	.	.	.	.	.
.	.	.	.	.	16b\J	.	.	.	.	.	.	.	.	.	.	.
8A\	.	8A\	8a/J	.	8a\J	.	.	.	.	.	.	.	.	.	.	.
8A\	5	8A\	8r	.	8r	.	.	.	.	.	.	.	.	.	.	.
8G#\J	-	8G#\J	8g#/	.	8dd\	.	.	.	.	.	.	.	.	.	.	.
=119	=119	=119	=119	=119	=119	=119	=119	=119	=119	=119	=119	=119	=119	=119	=119	=119
!LO:TX:t=P:problem:mixed beam	!	!LO:TX:t=P:problem:mixed beam	!	!	!	!	!	!	!	!	!	!	!	!	!	!
8A\L	.	8A\L	8a/L	.	8cc#\L	.	1ryy	.	1ryy	.	2r	.	2r	.	1ryy	1ryy
8D\	.	8D\	8f#/J	.	8a\	.	.	.	.	.	.	.	.	.	.	.
8E\	#	8E\	8e/L	.	8.a\	.	.	.	.	.	.	.	.	.	.	.
8EE/J	.	8EE/J	8e/J	.	.	.	.	.	.	.	.	.	.	.	.	.
.	.	.	.	.	16g#\Jk	.	.	.	.	.	.	.	.	.	.	.
8AA/L	.	8AA/L	4c#/	.	4a/	.	.	.	.	.	4a\	Re-	4cc#\	Re-	.	.
8AA/	.	8AA/	.	.	.	.	.	.	.	.	.	.	.	.	.	.
8AA/	.	8AA/	4r	.	4r	.	.	.	.	.	8b\	-dem-	8dd\	-dem-	.	.
8AA/J	.	8AA/J	.	.	.	.	.	.	.	.	8b\	-pti-	8dd\	-pti-	.	.
=120	=120	=120	=120	=120	=120	=120	=120	=120	=120	=120	=120	=120	=120	=120	=120	=120
8AA/L	.	8AA/L	4r	.	4r	.	1ryy	.	1ryy	.	16a\LL	-o-	16cc#\LL	-o-	1ryy	1ryy
.	.	.	.	.	.	.	.	.	.	.	16b\JJ	.	16dd\JJ	.	.	.
8AA/	.	8AA/	.	.	.	.	.	.	.	.	8cc#\	-nem	8ee\	-nem	.	.
8AA/	.	8AA/	16a\LL	.	16cc#\LL	.	.	.	.	.	4r	.	4r	.	.	.
.	.	.	16b\J	.	16dd\J	.	.	.	.	.	.	.	.	.	.	.
8AA/J	.	8AA/J	8cc#\J	.	8ee\J	.	.	.	.	.	.	.	.	.	.	.
!	!	!LO:LB:g=original	!	!	!	!	!	!	!	!	!	!	!	!	!	!
8E\L	.	8E\L	2r	.	2r	.	.	.	.	.	4g#\	mi-	4b\	mi-	.	.
8E\	.	8E\	.	.	.	.	.	.	.	.	.	.	.	.	.	.
8E\	.	8E\	.	.	.	.	.	.	.	.	4a\	-sit	4cc#\	-sit	.	.
8E\J	.	8E\J	.	.	.	.	.	.	.	.	.	.	.	.	.	.
=121	=121	=121	=121	=121	=121	=121	=121	=121	=121	=121	=121	=121	=121	=121	=121	=121
8E\L	7	8E\L	4r	.	4r	.	1ryy	.	1ryy	.	16g#\	po-	16b\	Do-	1ryy	1ryy
.	.	.	.	.	.	.	.	.	.	.	16a\	-pu-	16cc#\	-mi-	.	.
8E\	.	8E\	.	.	.	.	.	.	.	.	8b\	-lo	8dd\	-nus	.	.
8E\	.	8E\	16g#/LL	.	16b\LL	.	.	.	.	.	8r	.	8r	.	.	.
.	.	.	16a/J	.	16cc#\J	.	.	.	.	.	.	.	.	.	.	.
*	*	*	*	*	*	*	*	*	*	*	*	*ij	*	*	*	*
8E\J	.	8E\J	8b/J	.	8dd\J	.	.	.	.	.	8b\	mi-	8dd\	po-	.	.
!	!	!	!	!	!LO:LB:g=original	!	!	!	!	!	!	!	!LO:LB:g=original	!	!	!
8A\L	.	8A\L	2r	.	2r	.	.	.	.	.	8a\L	-sit	8cc#\L	.	.	.
8A\	.	8A\	.	.	.	.	.	.	.	.	8cc#\J	.	8ee\J	.	.	.
8D\	8 6	8D\	.	.	.	.	.	.	.	.	8b\L	po-	8dd\	-pu-	.	.
8D\J	7 5	8D\J	.	.	.	.	.	.	.	.	8a\J	.	8cc#\	-lo	.	.
!	!	!	!	!	!	!	!	!	!	!	!LO:LB:g=original	!	!	!	!	!
=122	=122	=122	=122	=122	=122	=122	=122	=122	=122	=122	=122	=122	=122	=122	=122	=122
8E\L	6 4	8E\L	8r	.	8r	.	1ryy	.	1ryy	.	8a\	-pu-	8cc#\	su-	1ryy	1ryy
!	!	!	!	!	!	!LO:DY:a	!	!	!	!	!	!	!	!	!	!
8E\	3	8E\	8ee\	.	8ee\	p	.	.	.	.	8g#\	-lo	8b\	-o	.	.
8E\	.	8E\	4e/	.	4e/	.	.	.	.	.	8r	.	8r	.	.	.
*	*	*	*	*	*	*	*	*	*	*	*	*Xij	*	*	*	*
8A\J	.	8A\J	.	.	.	.	.	.	.	.	8cc#\	man-	8aa\	man-	.	.
!LO:LB:g=original	!	!	!	!	!	!	!	!	!	!	!	!	!	!	!	!
8E\L	.	8E\L	2r	.	2r	.	.	.	.	.	8b\	-da-	8gg#X\	-da-	.	.
8E\	.	8E\	.	.	.	.	.	.	.	.	8a\	-vit	8ff#\	-vit	.	.
8E\	.	8E\	.	.	.	.	.	.	.	.	8g#\	in	8ee\	in	.	.
8E\J	.	8E\J	.	.	.	.	.	.	.	.	8g#\	ae-	8dd\	ae-	.	.
!	!	!	!LO:LB:g=original	!	!	!	!	!	!	!	!	!	!	!	!	!
=123	=123	=123	=123	=123	=123	=123	=123	=123	=123	=123	=123	=123	=123	=123	=123	=123
8A\L	.	8A\L	8r	.	8r	.	1ryy	.	1ryy	.	8a\	-ter-	8cc#\	-ter-	1ryy	1ryy
!	!	!	!	!	!	!LO:DY:a:t=p.	!	!	!	!	!	!	!	!	!	!
8A\	.	8A\	16b\LL	.	16cc#\LL	p	.	.	.	.	8a\	-num	8a\	-num	.	.
.	.	.	16cc#\JJ	.	16dd\JJ	.	.	.	.	.	.	.	.	.	.	.
8A\	.	8A\	4cc#\	.	4ee\	.	.	.	.	.	8r	.	8r	.	.	.
8A\J	.	8A\J	.	.	.	.	.	.	.	.	8cc#\L	tes-	8aa\L	tes-	.	.
8E\L	.	8E\L	2r	.	2r	.	.	.	.	.	8b\J	.	8gg#\J	.	.	.
8E\	.	8E\J	.	.	.	.	.	.	.	.	8a\	-ta-	8ff#\	-ta-	.	.
!	!	!LO:LB:g=original	!	!	!	!	!	!	!	!	!	!	!	!	!	!
8E\	.	8E\L	.	.	.	.	.	.	.	.	8g#\	-men-	8ee\	-men-	.	.
8E\J	.	8E\J	.	.	.	.	.	.	.	.	8g#\	-tu(m)	8dd\	-tum	.	.
!	!	!	!	!	!	!	!	!	!	!	!	!	!LO:LB:g=original	!	!	!
=124	=124	=124	=124	=124	=124	=124	=124	=124	=124	=124	=124	=124	=124	=124	=124	=124
8A\L	.	8A\L	8r	.	8r	.	1ryy	.	1ryy	.	8a\	su-	8cc#\	su-	1ryy	1ryy
8A\	.	8A\	8a/	.	16cc#\LL	.	.	.	.	.	8a\	-um	8a\	-um	.	.
.	.	.	.	.	16dd\JJ	.	.	.	.	.	.	.	.	.	.	.
8A\	.	8A\	4b/	.	4ee\	.	.	.	.	.	8r	.	8r	.	.	.
*	*	*	*	*	*	*	*	*	*	*	*	*ij	*	*ij	*	*
8G#\J	-5	8G#\J	.	.	.	.	.	.	.	.	16b\	tes-	16dd\	tes-	.	.
.	.	.	.	.	.	.	.	.	.	.	16b\	-ta-	16dd\	-ta-	.	.
!LO:TX:t=P:problem:mixed beam	!	!LO:TX:t=P:problem:mixed beam	!	!	!	!	!	!	!	!	!LO:LB:g=original	!	!	!	!	!
8A\L	.	8A\L	2r	.	2r	.	.	.	.	.	8a\	-men-	8cc#\	-men-	.	.
8D\	.	8D\	.	.	.	.	.	.	.	.	8a\	-tu(m)	8b\	-tum	.	.
8E\	43	8E\	.	.	.	.	.	.	.	.	8a\L	su-	8cc#\L	su-	.	.
8EE/J	.	8EE/J	.	.	.	.	.	.	.	.	8g#\J	.	16b\L	.	.	.
.	.	.	.	.	.	.	.	.	.	.	.	.	16a\JJ	.	.	.
=125	=125	=125	=125	=125	=125	=125	=125	=125	=125	=125	=125	=125	=125	=125	=125	=125
!LO:TX:t=P:problem:mixed beam	!	!LO:TX:t=P:problem:mixed beam	!	!	!	!	!	!	!	!	!	!	!	!	!	!
8AA/L	.	8AA/L	8r	.	8r	.	1ryy	.	1ryy	.	4a\	-um	8a\	-um	1ryy	1ryy
8A\	.	8A\	16A/LL	.	16c#/LL	.	.	.	.	.	.	.	8r	.	.	.
.	.	.	16B/JJ	.	16d/JJ	.	.	.	.	.	.	.	.	.	.	.
8A\	.	8A\	4c#/	.	4e/	.	.	.	.	.	8r	.	8r	.	.	.
*	*	*	*	*	*	*	*	*	*	*	*	*Xij	*	*Xij	*	*
8A\J	.	8A\J	.	.	.	.	.	.	.	.	8a\L	San-	8cc#\L	San-	.	.
8E\L	.	8E\L	2r	.	2r	.	.	.	.	.	8g#\J	.	8b\J	.	.	.
8E\	.	8E\	.	.	.	.	.	.	.	.	8g#\	-ctum	8b\	-ctum	.	.
8E\	2	8E\	.	.	.	.	.	.	.	.	8f#\	et	8a\	et	.	.
8E\J	.	8E\J	.	.	.	.	.	.	.	.	8f#\	ter-	8a\	ter-	.	.
=126	=126	=126	=126	=126	=126	=126	=126	=126	=126	=126	=126	=126	=126	=126	=126	=126
!LO:N:vis=8.	!	!	!	!	!	!	!	!	!	!	!	!	!	!	!	!
8D#X\L	65	8D#X\L	1r	.	1r	.	1ryy	.	1ryy	.	8.f#\	-ri-	8.a\	-ri-	1ryy	1ryy
8E\	.	8E\	.	.	.	.	.	.	.	.	.	.	.	.	.	.
.	.	.	.	.	.	.	.	.	.	.	16e\	-bi-	16g#\	-bi-	.	.
!	!	!	!	!	!	!	!	!	!	!	!	!	!LO:PB:g=original	!	!	!
8E\	.	8E\	.	.	.	.	.	.	.	.	8e\	-le	8g#\	-le	.	.
8A\J	.	8A\J	.	.	.	.	.	.	.	.	8e\	te-	8cc#\	te-	.	.
!LO:TX:t=P:problem:mixed beam	!	!LO:TX:t=P:problem:mixed beam	!	!	!	!	!	!	!	!	!	!	!	!	!	!
8G#\L	6	8G#\L	.	.	.	.	.	.	.	.	8e\	-ri-	8b\	-ri-	.	.
8A\	.	8A\	.	.	.	.	.	.	.	.	16a\	-bi-	16ee\	-bi-	.	.
.	.	.	.	.	.	.	.	.	.	.	16g#\	-le	16ff#\	-le	.	.
8B\	.	8B\	.	.	.	.	.	.	.	.	8.f#\	no-	8.dd#X\	no-	.	.
8BB/J	#	8BB/J	.	.	.	.	.	.	.	.	.	.	.	.	.	.
.	.	.	.	.	.	.	.	.	.	.	16f#\	-men	16ee\	-men	.	.
!LO:LB:g=original	!	!LO:LB:g=original	!	!	!LO:LB:g=original	!	!	!	!	!	!LO:PB:g=original	!	!	!	!	!
=127	=127	=127	=127	=127	=127	=127	=127	=127	=127	=127	=127	=127	=127	=127	=127	=127
8E\L	.	8E\L	8r	.	8r	.	1ryy	.	1ryy	.	8g#\	e-	8ee\	e-	1ryy	1ryy
8E\	.	8E\	16e/LL	.	16g#/LL	.	.	.	.	.	8g#\	-jus	8ee\	-jus	.	.
.	.	.	16f#/JJ	.	16a/JJ	.	.	.	.	.	.	.	.	.	.	.
8E\	.	8E\	4g#/	.	4b/	.	.	.	.	.	8r	.	8r	.	.	.
8E\J	.	8E\J	.	.	.	.	.	.	.	.	8g#\	i-	8b\	i-	.	.
8E\L	.	8E\L	2r	.	2r	.	.	.	.	.	8g#\	-ni-	8ee\	-ni-	.	.
8E\	.	8E\	.	.	.	.	.	.	.	.	16a\	-ti-	16ff#\	-ti-	.	.
.	.	.	.	.	.	.	.	.	.	.	16b\	-um	16gg#\	-um	.	.
8A\	6	8A\	.	.	.	.	.	.	.	.	8.a\	Sa-	8.ff#\	Sa-	.	.
8A\J	.	8A\J	.	.	.	.	.	.	.	.	.	.	.	.	.	.
.	.	.	.	.	.	.	.	.	.	.	16g#\	-pi-	16ee\	-pi-	.	.
=128	=128	=128	=128	=128	=128	=128	=128	=128	=128	=128	=128	=128	=128	=128	=128	=128
8B\L	#	8B\L	1r	.	1r	.	1ryy	.	1ryy	.	8.f#\	-en-	8.dd#X\	-en-	1ryy	1ryy
8B\	.	8B\	.	.	.	.	.	.	.	.	.	.	.	.	.	.
.	.	.	.	.	.	.	.	.	.	.	16e\	-ti-	16cc#\	-ti-	.	.
8B\	.	8B\	.	.	.	.	.	.	.	.	8d#X\	-ae	8b\	-ae	.	.
!	!	!	!	!	!	!	!	!	!	!	!	!	!LO:LB:g=original	!	!	!
8A\J	4 2	8A\J	.	.	.	.	.	.	.	.	4e\	ti-	8cc#\L	ti-	.	.
!LO:TX:t=P:problem:mixed beam	!	!LO:TX:t=P:problem:mixed beam	!	!	!	!	!	!	!	!	!	!	!	!	!	!
8G#\L	6	8G#\L	.	.	.	.	.	.	.	.	.	.	8b\J	.	.	.
8A\	.	8A\	.	.	.	.	.	.	.	.	8e\	-mor	16a\LL	-mor	.	.
.	.	.	.	.	.	.	.	.	.	.	.	.	16g#\JJ	.	.	.
8B\	6 4	8B\	.	.	.	.	.	.	.	.	8.e\	Do-	8g#/	Do-	.	.
8BB/J	#	8BB/J	.	.	.	.	.	.	.	.	.	.	16f#/LL	-mi-	.	.
.	.	.	.	.	.	.	.	.	.	.	16d#X\	-mi-	16e/JJ	.	.	.
!	!	!	!	!	!	!	!	!	!	!	!LO:LB:g=original	!	!	!	!	!
=129	=129	=129	=129	=129	=129	=129	=129	=129	=129	=129	=129	=129	=129	=129	=129	=129
8E\L	.	8E\L	4e/	.	4g#/	.	1ryy	.	1ryy	.	4e\	-ni	4e/	-ni	1ryy	1ryy
8E\	.	8E\	.	.	.	.	.	.	.	.	.	.	.	.	.	.
8E\	.	8E\	4f#/	.	4a/	.	.	.	.	.	4r	.	4r	.	.	.
8E\J	.	8E\J	.	.	.	.	.	.	.	.	.	.	.	.	.	.
8E\L	.	8E\L	16e/LL	.	16g#/LL	.	.	.	.	.	2r	.	2r	.	.	.
.	.	.	16f#/J	.	16a/J	.	.	.	.	.	.	.	.	.	.	.
8E\	.	8E\	8g#/J	.	8b/J	.	.	.	.	.	.	.	.	.	.	.
!	!	!	!LO:LB:g=original	!	!	!	!	!	!	!	!	!	!	!	!	!
8E\	.	8E\	4r	.	4r	.	.	.	.	.	.	.	.	.	.	.
8E\J	.	8E\J	.	.	.	.	.	.	.	.	.	.	.	.	.	.
=130	=130	=130	=130	=130	=130	=130	=130	=130	=130	=130	=130	=130	=130	=130	=130	=130
!	!	!	!	!	!	!	!	!	!	!	!LO:TX:a:t=3	!	!	!	!	!
8B\L	#	8B\L	4d#X/	.	4f#/	.	1ryy	.	1ryy	.	0r	.	0r	.	1ryy	1ryy
8B\	.	8B\	.	.	.	.	.	.	.	.	.	.	.	.	.	.
8B\	6 4	8B\	4e/	.	4g#/	.	.	.	.	.	.	.	.	.	.	.
8B\J	.	8B\J	.	.	.	.	.	.	.	.	.	.	.	.	.	.
!	!	!LO:LB:g=original	!	!	!	!	!	!	!	!	!	!	!	!	!	!
8B\L	#	8B\L	16d#/LL	.	16f#/LL	.	.	.	.	.	.	.	.	.	.	.
.	.	.	16e/J	.	16g#/J	.	.	.	.	.	.	.	.	.	.	.
8B\	.	8B\	8f#/J	.	8a/J	.	.	.	.	.	.	.	.	.	.	.
8B\	#	8B\	8r	.	8r	.	.	.	.	.	.	.	.	.	.	.
*	*	*	*clefC1	*	*	*	*	*	*	*	*	*	*	*	*	*
8B\J	7	8B\J	8f#/	.	8dd#X\	.	.	.	.	.	.	.	.	.	.	.
=131	=131	=131	=131	=131	=131	=131	=131	=131	=131	=131	=131	=131	=131	=131	=131	=131
!	!	!	!LO:TX:a:t=canto	!	!	!	!	!	!	!	!	!	!	!	!	!
8E\L	.	8E\L	8g#\L	.	8ee\L	.	1ryy	.	1ryy	.	.	.	.	.	1ryy	1ryy
8E\	.	8E\	8b\	.	8gg#\	.	.	.	.	.	.	.	.	.	.	.
8A\	.	8A\	8a\	.	8ff#\	.	.	.	.	.	.	.	.	.	.	.
8A\J	.	8A\J	8g#\J	.	8ee\J	.	.	.	.	.	.	.	.	.	.	.
8B\L	6 4	8B\L	8g#/L	.	8ee\L	.	.	.	.	.	.	.	.	.	.	.
8B\	#	8B\	8f#/J	.	8dd#X\J	.	.	.	.	.	.	.	.	.	.	.
!	!	!	!	!	!LO:LB:g=original	!	!	!	!	!	!	!	!	!	!	!
8B\	.	8B\	8r	.	8r	.	.	.	.	.	.	.	.	.	.	.
8D#X\J	.	8D#X\J	8g#/	.	8ee\	.	.	.	.	.	.	.	.	.	.	.
!LO:LB:g=original	!	!	!	!	!	!	!	!	!	!	!	!	!	!	!	!
=132	=132	=132	=132	=132	=132	=132	=132	=132	=132	=132	=132	=132	=132	=132	=132	=132
4.B\	#7	4.B\	8f#/L	.	8dd#X\L	.	1ryy	.	1ryy	.	1r	.	1r	.	1ryy	1ryy
.	.	.	8e/	.	8cc#\	.	.	.	.	.	.	.	.	.	.	.
.	.	.	8d#X/	.	8b\	.	.	.	.	.	.	.	.	.	.	.
8B\	.	8B\	8d#/J	.	8a\J	.	.	.	.	.	.	.	.	.	.	.
!	!	!	!LO:TX:a:t=+	!	!	!	!	!	!	!	!	!	!	!	!	!
8E\L	.	8E\L	8e/L	.	8g#/L	.	.	.	.	.	.	.	.	.	.	.
8E\	.	8E\	8f#/	.	8a/	.	.	.	.	.	.	.	.	.	.	.
8E\	.	8E\	8g#/	.	8b/	.	.	.	.	.	.	.	.	.	.	.
8B\J	#7	8B\J	8f#/J	.	8a/J	.	.	.	.	.	.	.	.	.	.	.
=133	=133	=133	=133	=133	=133	=133	=133	=133	=133	=133	=133	=133	=133	=133	=133	=133
!LO:TX:t=P:problem:mixed beam	!	!LO:TX:t=P:problem:mixed beam	!	!	!	!	!	!	!	!	!	!	!	!	!	!
8E\L	.	8E\L	4e/	.	4g#/	.	1ryy	.	1ryy	.	2r	.	2r	.	1ryy	1ryy
8G#\	.	8G#\	.	.	.	.	.	.	.	.	.	.	.	.	.	.
8B\	.	8B\	4d#X/	.	4f#M/	.	.	.	.	.	.	.	.	.	.	.
8BB/J	#	8BB/J	.	.	.	.	.	.	.	.	.	.	.	.	.	.
8E\L	.	8E\L	4e/	.	4e/	.	.	.	.	.	8r	.	8r	.	.	.
8E\	.	8E\	.	.	.	.	.	.	.	.	16g#\	in-	16b\	in-	.	.
.	.	.	.	.	.	.	.	.	.	.	16g#\	-tel-	16b\	-tel-	.	.
8E\	.	8E\	8r	.	8r	.	.	.	.	.	8g#\	-lec-	8b\	-lec-	.	.
*	*	*	*clefG2	*	*	*	*	*	*	*	*	*	*	*	*	*
!	!	!	!LO:TX:a:t=Violino	!	!	!	!	!	!	!	!	!	!	!	!	!
8E\J	.	8E\J	16e/LL	.	16g#/LL	.	.	.	.	.	8g#\	-tus	8ee\	-tus	.	.
.	.	.	16f#/JJ	.	16a/JJ	.	.	.	.	.	.	.	.	.	.	.
!	!	!LO:LB:g=original	!LO:LB:g=original	!	!	!	!	!	!	!	!	!	!	!	!	!
=134	=134	=134	=134	=134	=134	=134	=134	=134	=134	=134	=134	=134	=134	=134	=134	=134
8E\L	.	8E\L	4g#/	.	4b\	.	1ryy	.	1ryy	.	8r	.	8r	.	1ryy	1ryy
8E\	6 4	8E\	.	.	.	.	.	.	.	.	16g#\	bo-	16b\	bo-	.	.
.	.	.	.	.	.	.	.	.	.	.	16a\	-nus	16cc#\	-nus	.	.
8E\	7	8E\	4r	.	4r	.	.	.	.	.	8.b\	om-	8.dd\	om-	.	.
8E\J	.	8E\J	.	.	.	.	.	.	.	.	.	.	.	.	.	.
.	.	.	.	.	.	.	.	.	.	.	16a\	-ni-	16dd\	-ni-	.	.
!	!	!	!	!	!	!	!	!	!	!	!	!	!LO:LB:g=original	!	!	!
8A\L	.	8A\L	8r	.	8r	.	.	.	.	.	4a\	-bus	4cc#\	-bus	.	.
!	!	!	!	!	!	!LO:DY:a:t=pia	!	!	!	!	!	!	!	!	!	!
8A\	.	8A\	16a/LL	.	16cc#\LL	p	.	.	.	.	.	.	.	.	.	.
.	.	.	16b/JJ	.	16dd\JJ	.	.	.	.	.	.	.	.	.	.	.
8A\	.	8A\	4cc#\	.	4ee\	.	.	.	.	.	8r	.	8r	.	.	.
!	!	!	!	!	!	!	!	!	!	!	!LO:LB:g=original	!	!	!	!	!
8A\J	.	8A\J	.	.	.	.	.	.	.	.	16a\	fa-	16cc#\	fa-	.	.
.	.	.	.	.	.	.	.	.	.	.	16b\	-ci-	16dd\	-ci-	.	.
=135	=135	=135	=135	=135	=135	=135	=135	=135	=135	=135	=135	=135	=135	=135	=135	=135
8A\L	.	8A\L	2r	.	2r	.	1ryy	.	1ryy	.	8cc#\	-en-	8ee\	-en-	1ryy	1ryy
8A\	.	8A\	.	.	.	.	.	.	.	.	16dd\	-ti-	16ff#\	-ti-	.	.
.	.	.	.	.	.	.	.	.	.	.	16cc#\	-bus	16ee\	-bus	.	.
8D\	8 6	8D\	.	.	.	.	.	.	.	.	8b\L	e-	8dd\L	e-	.	.
8D\J	7 5	8D\J	.	.	.	.	.	.	.	.	8a\J	.	8cc#\J	.	.	.
!	!	!	!	!	!LO:LB:g=original	!	!	!	!	!	!	!	!	!	!	!
8E\L	.	8E\L	8r	.	8r	.	.	.	.	.	4g#\	-um	4b\	-um	.	.
8E\	5 3	8E\	16e/LL	.	16g#/LL	.	.	.	.	.	.	.	.	.	.	.
.	.	.	16f#/JJ	.	16a/JJ	.	.	.	.	.	.	.	.	.	.	.
8E\	.	8E\	4g#/	.	4b/	.	.	.	.	.	8r	.	8r	.	.	.
8E\J	6 4	8E\J	.	.	.	.	.	.	.	.	16g#\LL	lau-	16b\LL	lau-	.	.
.	.	.	.	.	.	.	.	.	.	.	16a\JJ	.	16cc#\JJ	.	.	.
=136	=136	=136	=136	=136	=136	=136	=136	=136	=136	=136	=136	=136	=136	=136	=136	=136
8E\L	7	8E\L	1r	.	1r	.	1ryy	.	1ryy	.	8b\	-da-	8dd\	-da-	1ryy	1ryy
8A\	.	8A\	.	.	.	.	.	.	.	.	16a\	-ti-	16cc#\	-ti-	.	.
.	.	.	.	.	.	.	.	.	.	.	16a\	-o	16cc#\	-o	.	.
8A\	.	8A\	.	.	.	.	.	.	.	.	8cc#\	e-	8ee\	e-	.	.
8A\J	.	8A\J	.	.	.	.	.	.	.	.	8b\	-jus	8dd\	-jus	.	.
!	!	!	!	!	!	!	!	!	!	!	!LO:LB:g=original	!	!	!	!	!
8A\L	6 4	8A\L	.	.	.	.	.	.	.	.	8dd\	ma-	8ff#\	ma-	.	.
8A\	3	8A\	.	.	.	.	.	.	.	.	8cc#\	-net	8ee\	-net	.	.
8A\	.	8A\	.	.	.	.	.	.	.	.	8r	.	8r	.	.	.
8E\J	7	8E\J	.	.	.	.	.	.	.	.	8b\	in	8dd\	in	.	.
!LO:LB:g=original	!	!	!	!	!	!	!	!	!	!	!	!	!LO:LB:g=original	!	!	!
=137	=137	=137	=137	=137	=137	=137	=137	=137	=137	=137	=137	=137	=137	=137	=137	=137
!LO:TX:t=P:problem:mixed beam	!	!LO:TX:t=P:problem:mixed beam	!	!	!	!	!	!	!	!	!	!	!	!	!	!
8A\L	.	8A\L	2r	.	2r	.	1ryy	.	1ryy	.	8a\	sae-	8cc#\	sae-	1ryy	1ryy
8D\	.	8D\	.	.	.	.	.	.	.	.	16a\	-cu-	16b\	-cu-	.	.
.	.	.	.	.	.	.	.	.	.	.	16a\	-lum	16b\	-lum	.	.
8E\	6 4	8E\	.	.	.	.	.	.	.	.	8.a\	sae-	8cc#\	sae-	.	.
8EE/J	.	8EE/J	.	.	.	.	.	.	.	.	.	.	16b\LL	-cu-	.	.
.	.	.	.	.	.	.	.	.	.	.	16g#\	-cu-	16a\JJ	.	.	.
!	!	!LO:LB:g=original	!	!	!	!	!	!	!	!	!	!	!	!	!	!
4.AA/	.	4.AA/	4r	.	4r	.	.	.	.	.	4a\	-li.	4a\	-li.	.	.
.	.	.	8r	.	8r	.	.	.	.	.	4r	.	4r	.	.	.
8A\	.	8A\	8cc#\	.	8aa\	.	.	.	.	.	.	.	.	.	.	.
=138	=138	=138	=138	=138	=138	=138	=138	=138	=138	=138	=138	=138	=138	=138	=138	=138
4E\	.	4E\	8b/L	.	8gg#\L	.	1ryy	.	1ryy	.	0r	.	0r	.	1ryy	1ryy
.	.	.	8a/	.	8ff#\	.	.	.	.	.	.	.	.	.	.	.
8r	.	8r	8g#/	.	8ee\	.	.	.	.	.	.	.	.	.	.	.
8E\	7	8E\	8g#/J	.	8dd\J	.	.	.	.	.	.	.	.	.	.	.
8A\L	.	8A\L	8a/L	.	16cc#\LL	.	.	.	.	.	.	.	.	.	.	.
.	.	.	.	.	16b\J	.	.	.	.	.	.	.	.	.	.	.
8A\	.	8A\	8a/J	.	8a\J	.	.	.	.	.	.	.	.	.	.	.
8A\	.	8A\	8r	.	8r	.	.	.	.	.	.	.	.	.	.	.
8A\J	.	8A\J	8cc#\	.	8aa\	.	.	.	.	.	.	.	.	.	.	.
=139	=139	=139	=139	=139	=139	=139	=139	=139	=139	=139	=139	=139	=139	=139	=139	=139
!	!	!	!	!	!	!LO:DY:a:t=pi	!	!	!	!	!	!	!	!	!	!
4E\	.	4E\	8b/L	.	8gg#\L	p	1ryy	.	1ryy	.	.	.	.	.	1ryy	1ryy
.	.	.	8a/	.	8ff#\	.	.	.	.	.	.	.	.	.	.	.
8r	.	8r	8g#/	.	8ee\	.	.	.	.	.	.	.	.	.	.	.
8E\	7	8E\	8g#/J	.	8dd\J	.	.	.	.	.	.	.	.	.	.	.
!	!	!	!LO:LB:g=original	!	!	!	!	!	!	!	!	!	!	!	!	!
8A\L	.	8A\L	8a/L	.	16cc#\LL	.	.	.	.	.	.	.	.	.	.	.
.	.	.	.	.	16b\J	.	.	.	.	.	.	.	.	.	.	.
8A\	.	8A\	8a/J	.	8a\J	.	.	.	.	.	.	.	.	.	.	.
8A\	.	8A\	8r	.	8r	.	.	.	.	.	.	.	.	.	.	.
8G#\J	-5	8G#\J	8b/	.	8dd\	.	.	.	.	.	.	.	.	.	.	.
!	!	!	!	!	!LO:LB:g=original	!	!	!	!	!	!	!	!	!	!	!
=140	=140	=140	=140	=140	=140	=140	=140	=140	=140	=140	=140	=140	=140	=140	=140	=140
!LO:TX:t=P:problem:mixed beam	!	!LO:TX:t=P:problem:mixed beam	!	!	!	!	!	!	!	!	!	!	!	!	!	!
8A\L	.	8A\L	8a/L	.	8cc#\L	.	1ryy	.	1ryy	.	1r	.	1r	.	1ryy	1ryy
8D\	.	8D\	8f#/	.	8a\	.	.	.	.	.	.	.	.	.	.	.
8E\	.	8E\	8e/	.	8.a\	.	.	.	.	.	.	.	.	.	.	.
8EE/J	.	8EE/J	8B/J	.	.	.	.	.	.	.	.	.	.	.	.	.
.	.	.	.	.	16g#\Jk	.	.	.	.	.	.	.	.	.	.	.
2AA/	.	2AA/	2c#/	.	2a/	.	.	.	.	.	.	.	.	.	.	.
!LO:LB:g=original	!	!LO:LB:g=original	!	!	!	!	!	!	!	!	!LO:LB:g=original	!	!	!	!	!
=141||	=141||	=141||	=141||	=141||	=141||	=141||	=141||	=141||	=141||	=141||	=141||	=141||	=141||	=141||	=141||	=141||
*M4/4	*	*M4/4	*M4/4	*	*M4/4	*	*M4/4	*	*M4/4	*	*M4/4	*	*M4/4	*	*M4/4	*M4/4
*met(c)	*	*met(c)	*met(c)	*	*met(c)	*	*met(c)	*	*met(c)	*	*met(c)	*	*met(c)	*	*met(c)	*met(c)
!LO:TX:a:i:t=Adagio Solo	!	!LO:TX:a:i:t=Adag(io) Solo	!	!	!	!	!	!	!	!	!	!	!	!	!	!
!LO:TX:b:i:t=Gloria Patri	!	!LO:TX:b:i:t=gloria Patri	!LO:TX:a:t=Gloria Tacet	!	!LO:TX:a:t=Gloria \nTacet	!	!	!	!	!	!LO:TX:a:B:t=adagio	!	!LO:TX:a:B:t=adagio	!	!	!LO:TX:a:B:t=Adagio
8A\L	.	8A\L	1ryy	.	1ryy	.	1ryy	.	1ryy	.	4a\	Glo-	4cc#\	Glo-	1ryy	1ryy
8A\	.	8A\	.	.	.	.	.	.	.	.	.	.	.	.	.	.
8A\	.	8A\	.	.	.	.	.	.	.	.	8a\	-ri-	8cc#\	-ri-	.	.
8A\J	.	8A\J	.	.	.	.	.	.	.	.	8a\	-a	8cc#\	-a	.	.
8F#\L	-3	8F#\L	.	.	.	.	.	.	.	.	4.a\	Pa-	4.cc#\	Pa-	.	.
8F#\	.	8F#\	.	.	.	.	.	.	.	.	.	.	.	.	.	.
8F#\	.	8F#\	.	.	.	.	.	.	.	.	.	.	.	.	.	.
8F#\J	.	8F#\J	.	.	.	.	.	.	.	.	8a\	-tri	8cc#\	-tri	.	.
!	!	!	!	!	!	!	!	!	!	!	!	!	!LO:LB:g=original	!	!	!
=142	=142	=142	=142	=142	=142	=142	=142	=142	=142	=142	=142	=142	=142	=142	=142	=142
8D\L	8 6	8D\L	1ryy	.	1ryy	.	1ryy	.	1ryy	.	4b\	Glo-	4dd\	glo-	1ryy	1ryy
8D\	.	8D\	.	.	.	.	.	.	.	.	.	.	.	.	.	.
8D\	7 5	8D\	.	.	.	.	.	.	.	.	8a\	-ri-	8cc#\	-ri-	.	.
8D\J	.	8D\J	.	.	.	.	.	.	.	.	8a\	-a	8cc#\	-a	.	.
8E\L	#	8E\L	.	.	.	.	.	.	.	.	8g#X\	Fi-	8b\	Fi-	.	.
8E\	.	8E\	.	.	.	.	.	.	.	.	16g#\	-li-	16e/	-li-	.	.
.	.	.	.	.	.	.	.	.	.	.	16g#\	-o	16e/	-o	.	.
8E\	.	8E\	.	.	.	.	.	.	.	.	4r	.	4r	.	.	.
8E\J	.	8E\J	.	.	.	.	.	.	.	.	.	.	.	.	.	.
=143	=143	=143	=143	=143	=143	=143	=143	=143	=143	=143	=143	=143	=143	=143	=143	=143
8A\L	.	8A\L	1ryy	.	1ryy	.	1ryy	.	1ryy	.	4a\	et	4b\	et	1ryy	1ryy
8A\	.	8A\	.	.	.	.	.	.	.	.	.	.	.	.	.	.
8A\	.	8A\	.	.	.	.	.	.	.	.	4a\	Spi-	4cc#\	Spi-	.	.
8A\J	.	8A\J	.	.	.	.	.	.	.	.	.	.	.	.	.	.
8F#\L	3	8F#\L	.	.	.	.	.	.	.	.	4a\	-ri-	4cc#\	-ri-	.	.
8F#\	.	8F#\	.	.	.	.	.	.	.	.	.	.	.	.	.	.
8D#X\	7 5	8D#X\	.	.	.	.	.	.	.	.	8a\	-tu-	8cc#\	-tu-	.	.
8D#\J	.	8D#\J	.	.	.	.	.	.	.	.	8a\	-i	8cc#\	-i	.	.
!	!	!LO:LB:g=original	!	!	!	!	!	!	!	!	!LO:LB:g=original	!	!	!	!	!
=144	=144	=144	=144	=144	=144	=144	=144	=144	=144	=144	=144	=144	=144	=144	=144	=144
8E\L	#	8E\L	1ryy	.	1ryy	.	1ryy	.	1ryy	.	4g#\	San-	(4b\	San-	1ryy	1ryy
8E\	.	8E\	.	.	.	.	.	.	.	.	.	.	.	.	.	.
8E\	6 4	8E\	.	.	.	.	.	.	.	.	(2a\	.	4cc#\)	.	.	.
8E\J	.	8E\J	.	.	.	.	.	.	.	.	.	.	.	.	.	.
8E\L	6 4	8E\L	.	.	.	.	.	.	.	.	.	.	2b\	.	.	.
8E\	.	8E\	.	.	.	.	.	.	.	.	.	.	.	.	.	.
8E\	3 6	8E\	.	.	.	.	.	.	.	.	4g#\)	.	.	.	.	.
8E\J	.	8E\J	.	.	.	.	.	.	.	.	.	.	.	.	.	.
=145	=145	=145	=145	=145	=145	=145	=145	=145	=145	=145	=145	=145	=145	=145	=145	=145
1AA	.	1AA	1ryy	.	1ryy	.	1ryy	.	1ryy	.	2a\	-cto.	2a\	-cto.	1ryy	1ryy
.	.	.	.	.	.	.	.	.	.	.	2r	.	2r	.	.	.
*clefC1	*	*clefC1	*	*	*	*	*	*	*	*	*	*	*	*	*	*
!LO:LB:g=original	!	!LO:LB:g=original	!LO:LB:g=original	!	!	!	!LO:PB:g=original	!	!LO:LB:g=original	!	!	!	!LO:LB:g=original	!	!	!
=146||	=146||	=146||	=146||	=146||	=146||	=146||	=146||	=146||	=146||	=146||	=146||	=146||	=146||	=146||	=146||	=146||
*k[f#c#]	*	*k[f#c#]	*k[f#c#]	*	*k[f#c#]	*	*k[f#c#]	*	*k[f#c#]	*	*k[f#c#]	*	*k[f#c#]	*	*k[f#c#]	*k[f#c#]
*M2/2	*	*M2/2	*M2/2	*	*M2/2	*	*M2/2	*	*M2/2	*	*M2/2	*	*M2/2	*	*M2/2	*M2/2
*met(c|)	*	*met(c|)	*met(c|)	*	*met(c|)	*	*met(c|)	*	*met(c|)	*	*met(c|)	*	*met(c|)	*	*met(c|)	*met(c|)
!	!	!	!	!	!LO:TX:b:i:t=Sicut erat	!	!	!	!	!	!	!	!	!	!LO:TX:b:i:t=Sicut erat	!LO:TX:b:i:t=Sicut erat
!LO:TX:b:i:t=Sicut erat	!	!LO:TX:b:i:t=Sicut erat	!LO:TX:b:i:t=Sicut erat	!	!LO:TX:a:t=2	!	!	!	!LO:TX:a:t=2	!	!LO:TX:a:B:t=All(egr)o	!	!	!	!LO:TX:a:t=2	!LO:TX:a:B:t=Allegro
!	!	!	!LO:TX:b:t=|	!	!	!	!	!	!	!	!	!	!	!	!	!
2d/	.	2d/	2d/	.	0r	.	0r	.	0r	.	2d\	Si-	0r	.	1r	0r
!	!	!	!LO:TX:b:t=|	!	!	!	!	!	!	!	!	!	!	!	!	!
2f#/	.	2f#/	2f#/	.	.	.	.	.	.	.	2f#\	-cut	.	.	.	.
=147	=147	=147	=147	=147	=147	=147	=147	=147	=147	=147	=147	=147	=147	=147	=147	=147
!	!	!	!LO:TX:b:t=|	!	!	!	!	!	!	!	!	!	!	!	!	!
2e/	.	2e/	2e/	.	.	.	.	.	.	.	2e\	e-	.	.	1r	.
!	!	!	!LO:TX:b:t=|	!	!	!	!	!	!	!	!	!	!	!	!	!
2a\	.	2a\	2a/	.	.	.	.	.	.	.	2a\	-rat	.	.	.	.
*	*	*clefF4	*	*	*	*	*	*	*	*	*	*	*	*	*	*
=148	=148	=148	=148	=148	=148	=148	=148	=148	=148	=148	=148	=148	=148	=148	=148	=148
*clefF4	*	*	*	*	*	*	*	*	*	*	*	*	*	*	*	*
2D\	.	2D\	2f#/	.	2aa\	.	2D\	Si-	2A\	Si-	2f#\	in	2dd\	Si-	2ff#\	2aa\
2F#\	.	2F#\	2a/	.	2dd\	.	2F#\	-cut	2A\	-cut	2a\	prin-	2dd\	-cut	2dd\	2aa\
=149	=149	=149	=149	=149	=149	=149	=149	=149	=149	=149	=149	=149	=149	=149	=149	=149
2E\	7	2E\	2.g/	.	2dd\	.	2E\	e-	2B\	e-	2g\	-ci-	2dd\	e-	2ee\	2gg\
!	!	!	!	!	!	!	!LO:TX:a:t=a	!	!	!	!	!	!	!	!	!
2A\	7	2A\	.	.	2cc#\	.	2A\	-rat	2c#\	-rat	2g\	-pi-	2cc#\	-rat	2dd\	2ff#\
.	.	.	4g/	.	.	.	.	.	.	.	.	.	.	.	.	.
!	!	!	!	!	!	!	!	!	!	!	!LO:LB:g=original	!	!	!	!	!
=150	=150	=150	=150	=150	=150	=150	=150	=150	=150	=150	=150	=150	=150	=150	=150	=150
4D\	.	4D\	4f#/	.	2.dd\	.	(4D\	in	2A\	in	(4f#\	-o	2.dd\	in	4dd\	4ff#\
4E\	.	4E\	4g/	.	.	.	4E\)	.	.	.	4g\)	.	.	.	4dd\	4gg\
4F#\	.	4F#\	4a/	.	.	.	(4F#\	prin-	(4d\	prin-	(4a\	et	.	.	4dd\	4aa\
4G\	56	4G\	4b/	.	4dd\	.	4G\)	.	4e\)	.	4b\)	.	4dd\	prin-	4dd\	4bb\
=151	=151	=151	=151	=151	=151	=151	=151	=151	=151	=151	=151	=151	=151	=151	=151	=151
4A\	.	4A\	2e/	.	4cc#\	.	4A\	-ci-	4e\	.	4e\	nunc	4cc#\	-ci-	4a/	4ee\
4B\	.	4B\	.	.	4dd\	.	4B\	-pi-	4d\	-ci-	4e\	et	4dd\	-pi-	4a/	4ee\
!	!	!	!	!	!LO:LB:g=original	!	!	!	!	!	!	!	!	!	!	!
4c#\	.	4c#\	2a/	.	4ee\	.	4c#\	-o	4c#\	-pi-	4e\	sem-	4ee\	-o	4a/	4ee\
4A\	.	4A\	.	.	4cc#\	.	4A\	et	4e\	-o	4e\	-per	4cc#\	et	4a/	4ee\
=152	=152	=152	=152	=152	=152	=152	=152	=152	=152	=152	=152	=152	=152	=152	=152	=152
2d\	.	2d\	2a/	.	2ff#\	.	2d\	nunc	2A\	et	2f#\	et	2.dd\	nunc	2a/	2ff#\
!	!	!LO:LB:g=original	!	!	!	!	!	!	!	!	!	!	!	!	!	!
2F#\	6	2F#\	4dd\	.	2aa\	.	2F#\	et	2A\	nunc	2f#\	sem-	.	.	2dd\	2aa\
.	.	.	4ff#\	.	.	.	.	.	.	.	.	.	4dd\	et	.	.
=153	=153	=153	=153	=153	=153	=153	=153	=153	=153	=153	=153	=153	=153	=153	=153	=153
2G#X\	6 5	2G#X\	2ee\	.	2bb\	.	2G#X\	sem-	(2B\	et	1e	.	(2dd\	sem-	2ee\	2bb\
2A\	.	2A\	2cc#\	.	2aa\	.	2A\	-per	2A\)	.	.	.	2cc#\)	.	2ee\	2aa\
!LO:LB:g=original	!	!	!	!	!	!	!	!	!	!	!	!	!	!	!	!
=154	=154	=154	=154	=154	=154	=154	=154	=154	=154	=154	=154	=154	=154	=154	=154	=154
!	!	!	!	!	!	!	!LO:TX:t=P:problem:tekst skreślony	!	!	!	!	!	!	!	!	!
2A\	2	2A\	1dd	.	1bb	.	2A\	[[et	1B	sem-	(2d\	.	1dd	-per	2ff#\	2ff#\
(2G#X\	.	2G#X\	.	.	.	.	2G#X\	in]]	.	.	2e\)	.	.	.	2ee\	2ee\
!	!	!	!LO:LB:g=original	!	!	!	!LO:LB:g=original	!	!	!	!	!	!	!	!	!
=155	=155	=155	=155	=155	=155	=155	=155	=155	=155	=155	=155	=155	=155	=155	=155	=155
2A\)	.	2A\	2cc#\	.	2aa\	.	2A\	.	2A\	-per	2e\	-per	2cc#\	et	2a/	2ee\
2r	.	2r	4a\	.	2r	.	2r	.	2r	.	2r	.	(4a\	in	2r	2r
.	.	.	4cc#\	.	.	.	.	.	.	.	.	.	4cc#\)	.	.	.
!	!	!	!	!	!	!	!	!	!LO:LB:g=original	!	!	!	!LO:LB:g=original	!	!	!
=156	=156	=156	=156	=156	=156	=156	=156	=156	=156	=156	=156	=156	=156	=156	=156	=156
1r	.	1r	2b\	.	1r	.	1r	.	1r	.	1r	.	2b\	sae-	1r	1r
.	.	.	2ee\	.	.	.	.	.	.	.	.	.	2ee\	-cu-	.	.
=157	=157	=157	=157	=157	=157	=157	=157	=157	=157	=157	=157	=157	=157	=157	=157	=157
2AA/	.	2AA/	2.ee\	.	4cc#\	.	2AA/	et	2e\	et	2a\	et	2cc#\	-la	2ee\	2aa\
.	.	.	.	.	4ee\	.	.	.	.	.	.	.	.	.	.	.
2C#/	6	2C#/	.	.	2aa\	.	2C#/	in	2c#\	in	2a\	in	2ee\	in	2dd\	2aa\
.	.	.	4ee\	.	.	.	.	.	.	.	.	.	.	.	.	.
!	!	!	!	!	!	!	!	!	!	!	!LO:LB:g=original	!	!	!	!	!LO:LB:g=original
=158	=158	=158	=158	=158	=158	=158	=158	=158	=158	=158	=158	=158	=158	=158	=158	=158
2BB/	7	2BB/	2.dd\	.	2aa\	.	2BB/	sae-	2.d\	sae-	2a\	sae-	2.dd\	sae-	2dd\	2aa\
2E\	7#	2E\	.	.	2gg#X\	.	2E/	-cu-	.	.	2g#X\	-cu-	.	.	2dd\	2gg#X\
.	.	.	4dd\	.	.	.	.	.	4B\	-cu-	.	.	4dd\	-cu-	.	.
=159	=159	=159	=159	=159	=159	=159	=159	=159	=159	=159	=159	=159	=159	=159	=159	=159
4AA/	.	4AA/	4cc#\	.	2.aa\	.	2AA/	-la	2c#\	-la	2a\	-la	2cc#\	-la	2.ee\	2.aa\
4AA/	.	4AA/	4cc#\	.	.	.	.	.	.	.	.	.	.	.	.	.
4BB/	.	4BB/	4dd\	.	.	.	2r	.	2r	.	4a\	sae-	4dd\	sae-	.	.
4C#/	.	4C#/	4ee\	.	4ggn\	.	.	.	.	.	4gn\	-cu-	4ee\	-cu-	4ee\	4gg\
=160	=160	=160	=160	=160	=160	=160	=160	=160	=160	=160	=160	=160	=160	=160	=160	=160
4D\	.	4D\	2a/	.	4ff#\	.	(4D\	sae-	2A\	sae-	(4f#\	-lo-	2.dd\	-lo-	4dd\	4ff#\
4E\	.	4E\	.	.	4gg\	.	4E\)	.	.	.	4g\)	.	.	.	4dd\	4gg\
4F#\	.	4F#\	2dd\	.	4aa\	.	(4F#\	-cu-	2d\	-cu-	(4a\	-rum	.	.	4dd\	4aa\
4G\	65	4G\	.	.	4bb\	.	4G\)	.	.	.	4b\)	.	4ee\	-rum	4dd\	4bb\
!	!	!LO:PB:g=original	!	!	!	!	!	!	!	!	!	!	!	!	!	!
=161	=161	=161	=161	=161	=161	=161	=161	=161	=161	=161	=161	=161	=161	=161	=161	=161
4A\	.	4A\	4cc#\	.	2ee\	.	(4A\	-lo-	(4c#\	-lo-	2e\	a-	4cc#\	a-	2a/	2ee\
4B\	.	4B\	4dd\	.	.	.	4B\)	.	4B\	.	.	.	4dd\	.	.	.
4c#\	.	4c#\	4ee\	.	4aa\	.	(4c#\	-rum	4A\)	.	2a\	.	4ee\	.	2ee\	4aa\
4A\	.	4A\	4cc#\	.	4gg\	.	4A\)	.	4c#\	-rum	.	.	4cc#\	.	.	4gg\
!	!	!	!	!	!LO:LB:g=original	!	!	!	!	!	!	!	!	!	!	!
=162	=162	=162	=162	=162	=162	=162	=162	=162	=162	=162	=162	=162	=162	=162	=162	=162
4d\	.	4d\	2a/	.	2ff#\	.	4d\	A-	1A	a-	2f#\	-men	2a\	.	2.dd\	2ff#\
4A\	.	4A\	.	.	.	.	4A\	.	.	.	.	.	.	.	.	.
4F#\	.	4F#\	2dd\	.	4r	.	4F#\	.	.	.	4r	.	2dd\	-men	.	4r
*	*	*	*	*	*	*	*	*	*	*	*	*ij	*	*	*	*
4D\	.	4D\	.	.	4ff#\	.	4D\	.	.	.	4f#\	a-	.	.	4dd\	4ff#\
!LO:LB:g=original	!	!	!	!	!	!	!	!	!	!	!	!	!	!	!	!
=163	=163	=163	=163	=163	=163	=163	=163	=163	=163	=163	=163	=163	=163	=163	=163	=163
2A\	.	2A\	4cc#\	.	4ee\	.	2A\	-men.	2A\	-men	2e\	-men	4cc#\	a-	4a/	4ee\
.	.	.	4a\	.	4a/	.	.	.	.	.	.	.	4a\	.	4a/	4ee\
2r	.	2r	4cc#\	.	4cc#/	.	2r	.	2r	.	2r	.	4cc#\	.	4a/	4ee\
.	.	.	4aa\	.	4aa\	.	.	.	.	.	.	.	4ee\	.	4a/	4ee\
!	!	!	!LO:LB:g=original	!	!	!	!LO:LB:g=original	!	!	!	!	!	!LO:LB:g=original	!	!	!
=164	=164	=164	=164	=164	=164	=164	=164	=164	=164	=164	=164	=164	=164	=164	=164	=164
4d\	.	4d\	2ff#\	.	2.ff#\	.	4d\	A-	[2A\	a-	2f#\	a-	2.dd\	.	2.dd\	2.ff#\
4A\	.	4A\	.	.	.	.	4A\	.	.	.	.	.	.	.	.	.
4F#\	.	4F#\	2dd\	.	.	.	4F#\	.	2A\]	.	2f#\	-men	.	.	.	.
4D\	.	4D\	.	.	4ff#\	.	4D\	.	.	.	.	.	4dd\	-men	4dd\	4ff#\
!	!	!	!	!	!	!	!	!	!LO:LB:g=original	!	!LO:LB:g=original	!	!	!	!	!
=165	=165	=165	=165	=165	=165	=165	=165	=165	=165	=165	=165	=165	=165	=165	=165	=165
2A\	.	2A\	4cc#\	.	4ee\	.	2A\	-men	2A\	-men	4e\	a-	4cc#\	a-	4a/	4ee\
.	.	.	4cc#\	.	4a/	.	.	.	.	.	4e\	-men	4a\	.	4a/	4ee\
4r	.	4r	4a/	.	4cc#/	.	4r	.	4r	.	4r	.	4cc#\	.	4a/	4ee\
*	*	*	*	*	*	*	*	*	*	*	*	*Xij	*	*	*	*
4F#\	6	4F#\	4dd\	.	[4aa\	.	8G\L	a-	[4d\	a-	4a\	a-	4dd\	.	4dd\	4aa\
.	.	.	.	.	.	.	8F#\J	.	.	.	.	.	.	.	.	.
=166	=166	=166	=166	=166	=166	=166	=166	=166	=166	=166	=166	=166	=166	=166	=166	=166
!	!	!	!	!	!	!	!	!	!	!	!	!	!LO:TX:t=P:problem:brakujący takt?	!	!	!
4G\	6	4G\	4b\	.	2aa\]	.	4G\	.	2.d\]	.	2a\	.	1ryy	.	2dd\	2aa\
4A\	.	4A\	4cc#\	.	.	.	4A\	.	.	.	.	.	.	.	.	.
4B\	.	4B\	4dd\	.	[2gg\	.	4B\	.	.	.	2g\	.	.	.	4dd\	2gg\
4c#\	.	4c#\	4ee\	.	.	.	4c#\	.	4c#\	.	.	.	.	.	4ee\	.
!	!	!LO:LB:g=original	!	!	!	!	!	!	!	!	!	!	!	!	!	!
=167	=167	=167	=167	=167	=167	=167	=167	=167	=167	=167	=167	=167	=167	=167	=167	=167
4d\	94	4d\	4ee\	.	4gg\]	.	4d\	.	(2.A\	.	4g\	.	4ee\	.	4ee\	4gg\
4A\	.	4A\	8dd\L	.	8ff#\L	.	4A\	.	.	.	8f#\L	.	8dd\L	.	8dd\L	8ff#\L
.	.	.	8cc#\J	.	8ee\J	.	.	.	.	.	8e\J	.	8cc#\J	.	8cc#\J	8ee\J
4F#\	.	4F#\	4dd\	.	4ff#\	.	4F#\	.	.	.	2f#\	.	2dd\	.	2dd\	2ff#\
4D\	.	4D\	4dd\	.	[4ff#\	.	4D\	.	4d\)	.	.	.	.	.	.	.
!	!	!	!	!	!	!	!	!	!	!	!	!	!	!	!	!LO:PB:g=original
=168	=168	=168	=168	=168	=168	=168	=168	=168	=168	=168	=168	=168	=168	=168	=168	=168
4B\	-3	4B\	4dd\	.	4ff#\]	.	4B\	.	2B\	.	4f#\	.	4dd\	.	4dd\	4ff#\
4G\	.	4G\	4dd\	.	4ee\	.	4G\	.	.	.	4g\	.	4dd\	.	4dd\	4ee\
4A\	6 4	4A\	4dd\	.	4ff#\	.	4A\	.	2A\	.	2e\	.	(4dd\	.	4dd\	4ff#\
4AA/	3	4AA/	4cc#\	.	8ee\L	.	4AA/	.	.	.	.	.	4cc#\)	.	4a/	8ee\L
.	.	.	.	.	8dd\J	.	.	.	.	.	.	.	.	.	.	8dd\J
=169	=169	=169	=169	=169	=169	=169	=169	=169	=169	=169	=169	=169	=169	=169	=169	=169
2D\	.	2D\	2dd\	.	2dd\	.	2D\	-men	2A\	men	2f#\	.	2dd\	.	2f#/	2dd\
*	*	*	*	*	*	*	*	*	*	*ij	*	*	*	*	*	*
2A\	.	2A\	2cc#\	.	2ee\	.	2A\	a-	2A\	a-	2e\	.	2cc#\	.	2a/	2ee\
=170	=170	=170	=170	=170	=170	=170	=170	=170	=170	=170	=170	=170	=170	=170	=170	=170
2D\	.	2D\	2dd\	.	8ff#\L	.	2D/	-men	2A\	-men	2f#\	-men	2dd\	men	2dd\	2ff#\
*	*	*	*	*	*	*	*	*	*	*Xij	*	*	*	*	*	*
.	.	.	.	.	8dd\	.	.	.	.	.	.	.	.	.	.	.
.	.	.	.	.	8ff#\	.	.	.	.	.	.	.	.	.	.	.
.	.	.	.	.	8aa\J	.	.	.	.	.	.	.	.	.	.	.
2r	.	2r	4r	.	4ddd\	.	2r	.	2r	.	2r	.	2r	.	2r	2r
.	.	.	4dd\	.	4cccn\	.	.	.	.	.	.	.	.	.	.	.
!	!	!	!	!	!	!	!LO:LB:g=original	!	!	!	!	!	!	!	!	!
=171	=171	=171	=171	=171	=171	=171	=171	=171	=171	=171	=171	=171	=171	=171	=171	=171
1G	.	1G	1dd	.	1bb	.	1G	a-	1B	a-	1d	a-	1dd	a-	2.dd\	2.dd\
.	.	.	.	.	.	.	.	.	.	.	.	.	.	.	4dd\	4dd\
=172	=172	=172	=172	=172	=172	=172	=172	=172	=172	=172	=172	=172	=172	=172	=172	=172
1D	.	1D	1ff#	.	1aa	.	1D	-men.	1A	-men	1f#	-men.	1dd	-men.	1dd	2ff#\
.	.	.	.	.	.	.	.	.	.	.	.	.	.	.	.	2ff#\
==	==	==	==	==	==	==	==	==	==	==	==	==	==	==	==	==
*-	*-	*-	*-	*-	*-	*-	*-	*-	*-	*-	*-	*-	*-	*-	*-	*-
!!!system-decoration: [(s1,s2)][(s3,s4,s5,s6)][(s7,s8,s9)],[(s10)]
!!!ENC: Filip Voros
!!!END: 2024-05-18
!!!ENC: Leszek Kubiak
!!!END: 2024-08-22
